(G-CODE GENERATED BY FLATCAM v8.994 - www.flatcam.org - Version Date: 2020/11/7)

(Name: Gerber_TopLayer.GTL_0.1000_iso_cnc)
(Type: G-code from Geometry)
(Units: MM)

(Created on Sunday, 19 May 2024 at 18:45)

(This preprocessor is the default preprocessor used by FlatCAM.)
(It is made to work with MACH3 compatible motion controllers.)

(TOOL DIAMETER: 0.2 mm)
(Feedrate_XY: 120.0 mm/min)
(Feedrate_Z: 60.0 mm/min)
(Feedrate rapids 1500.0 mm/min)

(Z_Cut: -0.0 mm)
(Z_Move: 5.0 mm)
(Z Start: None mm)
(Z End: 15.0 mm)
(X,Y End: None mm)
(Steps per circle: 64)
(Preprocessor Geometry: default)

(X range:    1.0240 ...   91.5660  mm)
(Y range:    1.0360 ...   90.1740  mm)

(Spindle Speed: 75.0 RPM)
G21
G90
G94

G01 F120.00

M5
G00 Z15.0000
G00 X0.0000 Y0.0000
T1
M6    
(MSG, Change to Tool Dia = 0.2000)
M0
G00 Z15.0000

M03 P75.0
G01 F120.00
G00 X10.3059 Y3.0134
G01 F60.00
G01 Z-0.0000
G01 F120.00
G01 X10.2425 Y2.9907
G01 X10.1582 Y2.9508
G01 X10.0782 Y2.9029
G01 X10.0024 Y2.8466
G01 X9.9342 Y2.7848
G01 X9.8716 Y2.7157
G01 X9.8161 Y2.6408
G01 X9.7676 Y2.5597
G01 X9.7283 Y2.4765
G01 X9.6969 Y2.3888
G01 X9.6743 Y2.2983
G01 X9.6606 Y2.2061
G01 X9.6560 Y2.1130
G01 X9.6606 Y2.0199
G01 X9.6743 Y1.9277
G01 X9.6973 Y1.8361
G01 X9.7283 Y1.7495
G01 X9.7682 Y1.6652
G01 X9.8161 Y1.5852
G01 X9.8716 Y1.5103
G01 X9.9342 Y1.4412
G01 X10.0033 Y1.3786
G01 X10.0782 Y1.3231
G01 X10.1582 Y1.2752
G01 X10.2425 Y1.2353
G01 X10.3302 Y1.2039
G01 X10.4207 Y1.1813
G01 X10.5129 Y1.1676
G01 X10.6060 Y1.1630
G01 X10.6991 Y1.1676
G01 X10.7913 Y1.1813
G01 X10.8829 Y1.2043
G01 X10.9695 Y1.2353
G01 X11.0516 Y1.2741
G01 X11.1338 Y1.3231
G01 X11.2087 Y1.3786
G01 X11.2760 Y1.4396
G01 X11.3404 Y1.5103
G01 X11.3959 Y1.5852
G01 X11.4426 Y1.6630
G01 X11.4837 Y1.7495
G01 X11.5157 Y1.8396
G01 X11.5377 Y1.9277
G01 X11.5514 Y2.0199
G01 X11.5560 Y2.1130
G01 X11.5516 Y2.2037
G01 X11.5372 Y2.3007
G01 X11.5151 Y2.3888
G01 X11.4837 Y2.4765
G01 X11.4438 Y2.5608
G01 X11.3966 Y2.6398
G01 X11.3404 Y2.7157
G01 X11.2794 Y2.7830
G01 X11.2077 Y2.8481
G01 X11.1338 Y2.9029
G01 X11.0538 Y2.9508
G01 X10.9695 Y2.9907
G01 X10.9061 Y3.0134
G01 X10.9061 Y6.2926
G01 X10.9695 Y6.3153
G01 X11.0516 Y6.3541
G01 X11.1317 Y6.4018
G01 X11.2087 Y6.4586
G01 X11.2769 Y6.5204
G01 X11.3404 Y6.5903
G01 X11.3959 Y6.6652
G01 X11.4438 Y6.7452
G01 X11.4837 Y6.8295
G01 X11.5151 Y6.9172
G01 X11.5377 Y7.0077
G01 X11.5514 Y7.0999
G01 X11.5560 Y7.1942
G01 X11.5514 Y7.2861
G01 X11.5372 Y7.3807
G01 X11.5143 Y7.4711
G01 X11.4837 Y7.5565
G01 X11.4549 Y7.6175
G01 X17.8350 Y13.9975
G01 X17.8563 Y14.0213
G01 X17.8723 Y14.0430
G01 X17.8862 Y14.0661
G01 X17.9000 Y14.0949
G01 X17.9106 Y14.1250
G01 X17.9171 Y14.1512
G01 X17.9211 Y14.1779
G01 X17.9229 Y14.2098
G01 X17.9229 Y32.3945
G01 X19.2624 Y33.7341
G01 X19.4390 Y33.7341
G01 X19.4390 Y33.3929
G01 X19.4394 Y33.3868
G01 X19.4408 Y33.3796
G01 X19.4438 Y33.3715
G01 X19.4481 Y33.3641
G01 X19.4536 Y33.3575
G01 X19.4592 Y33.3527
G01 X19.4665 Y33.3482
G01 X19.4745 Y33.3451
G01 X19.4829 Y33.3433
G01 X19.4890 Y33.3429
G01 X22.2982 Y33.3429
G01 X22.3068 Y33.3439
G01 X22.3150 Y33.3463
G01 X22.3237 Y33.3507
G01 X22.3306 Y33.3559
G01 X22.3364 Y33.3621
G01 X22.3411 Y33.3693
G01 X22.3445 Y33.3772
G01 X22.3466 Y33.3868
G01 X22.3470 Y33.3929
G01 X22.3470 Y34.6766
G01 X22.3465 Y34.6827
G01 X22.3452 Y34.6887
G01 X22.3436 Y34.6934
G01 X22.3411 Y34.6990
G01 X22.3379 Y34.7042
G01 X22.3340 Y34.7090
G01 X22.3297 Y34.7133
G01 X22.3248 Y34.7170
G01 X22.3184 Y34.7206
G01 X22.3115 Y34.7232
G01 X22.3043 Y34.7249
G01 X22.2970 Y34.7254
G01 X19.4890 Y34.7254
G01 X19.4829 Y34.7250
G01 X19.4745 Y34.7232
G01 X19.4665 Y34.7201
G01 X19.4592 Y34.7156
G01 X19.4536 Y34.7108
G01 X19.4481 Y34.7042
G01 X19.4443 Y34.6979
G01 X19.4412 Y34.6899
G01 X19.4394 Y34.6815
G01 X19.4390 Y34.6754
G01 X19.4390 Y34.3343
G01 X19.2624 Y34.3343
G01 X16.1886 Y37.4082
G01 X16.1886 Y44.0726
G01 X16.2075 Y44.0900
G01 X16.2355 Y44.1209
G01 X16.2619 Y44.1563
G01 X16.2853 Y44.1952
G01 X16.3037 Y44.2340
G01 X16.3191 Y44.2767
G01 X16.3298 Y44.3195
G01 X16.3363 Y44.3632
G01 X16.3384 Y44.4085
G01 X16.3363 Y44.4514
G01 X16.3298 Y44.4951
G01 X16.3191 Y44.5379
G01 X16.3051 Y44.5772
G01 X16.2841 Y44.6216
G01 X16.2626 Y44.6573
G01 X16.2347 Y44.6946
G01 X16.2066 Y44.7255
G01 X16.1739 Y44.7552
G01 X16.1384 Y44.7815
G01 X16.1006 Y44.8042
G01 X16.0606 Y44.8230
G01 X16.0191 Y44.8379
G01 X15.9762 Y44.8487
G01 X15.9338 Y44.8550
G01 X15.8884 Y44.8573
G01 X15.8443 Y44.8551
G01 X15.8006 Y44.8487
G01 X15.7578 Y44.8379
G01 X15.7162 Y44.8230
G01 X15.6763 Y44.8042
G01 X15.6384 Y44.7815
G01 X15.6011 Y44.7536
G01 X15.5702 Y44.7255
G01 X15.5422 Y44.6946
G01 X15.5157 Y44.6593
G01 X15.4916 Y44.6194
G01 X15.4737 Y44.5818
G01 X15.4578 Y44.5379
G01 X15.4471 Y44.4951
G01 X15.4406 Y44.4514
G01 X15.4385 Y44.4098
G01 X15.4406 Y44.3632
G01 X15.4471 Y44.3195
G01 X15.4578 Y44.2767
G01 X15.4732 Y44.2340
G01 X15.4916 Y44.1952
G01 X15.5150 Y44.1563
G01 X15.5414 Y44.1209
G01 X15.5694 Y44.0900
G01 X15.5883 Y44.0726
G01 X15.5883 Y37.2839
G01 X15.5901 Y37.2520
G01 X15.5941 Y37.2253
G01 X15.6006 Y37.1991
G01 X15.6112 Y37.1690
G01 X15.6250 Y37.1403
G01 X15.6389 Y37.1171
G01 X15.6549 Y37.0954
G01 X15.6762 Y37.0716
G01 X18.7137 Y34.0342
G01 X17.4097 Y32.7302
G01 X17.3908 Y32.7092
G01 X17.3732 Y32.6856
G01 X17.3581 Y32.6603
G01 X17.3465 Y32.6359
G01 X17.3349 Y32.6036
G01 X17.3284 Y32.5774
G01 X17.3240 Y32.5470
G01 X17.3226 Y32.5188
G01 X17.3226 Y14.3341
G01 X11.0305 Y8.0419
G01 X10.9695 Y8.0707
G01 X10.8818 Y8.1021
G01 X10.7913 Y8.1247
G01 X10.6991 Y8.1384
G01 X10.6060 Y8.1430
G01 X10.5129 Y8.1384
G01 X10.4207 Y8.1247
G01 X10.3314 Y8.1024
G01 X10.2425 Y8.0707
G01 X10.1582 Y8.0308
G01 X10.0782 Y7.9829
G01 X10.0053 Y7.9289
G01 X9.9326 Y7.8630
G01 X9.8716 Y7.7957
G01 X9.8154 Y7.7198
G01 X9.7682 Y7.6408
G01 X9.7274 Y7.5543
G01 X9.6969 Y7.4688
G01 X9.6748 Y7.3807
G01 X9.6609 Y7.2886
G01 X9.6560 Y7.1930
G01 X9.6606 Y7.0999
G01 X9.6743 Y7.0077
G01 X9.6973 Y6.9161
G01 X9.7293 Y6.8272
G01 X9.7682 Y6.7452
G01 X9.8148 Y6.6673
G01 X9.8716 Y6.5903
G01 X9.9342 Y6.5212
G01 X10.0033 Y6.4586
G01 X10.0803 Y6.4018
G01 X10.1604 Y6.3541
G01 X10.2425 Y6.3153
G01 X10.3059 Y6.2926
G01 X10.3059 Y3.0134
G00 Z5.0000
G00 X15.3859 Y3.0134
G01 F60.00
G01 Z-0.0000
G01 F120.00
G01 X15.3225 Y2.9907
G01 X15.2382 Y2.9508
G01 X15.1582 Y2.9029
G01 X15.0824 Y2.8466
G01 X15.0142 Y2.7848
G01 X14.9516 Y2.7157
G01 X14.8961 Y2.6408
G01 X14.8476 Y2.5597
G01 X14.8083 Y2.4765
G01 X14.7769 Y2.3888
G01 X14.7543 Y2.2983
G01 X14.7406 Y2.2061
G01 X14.7360 Y2.1130
G01 X14.7406 Y2.0199
G01 X14.7543 Y1.9277
G01 X14.7773 Y1.8361
G01 X14.8083 Y1.7495
G01 X14.8482 Y1.6652
G01 X14.8961 Y1.5852
G01 X14.9516 Y1.5103
G01 X15.0142 Y1.4412
G01 X15.0833 Y1.3786
G01 X15.1582 Y1.3231
G01 X15.2382 Y1.2752
G01 X15.3225 Y1.2353
G01 X15.4102 Y1.2039
G01 X15.5007 Y1.1813
G01 X15.5929 Y1.1676
G01 X15.6860 Y1.1630
G01 X15.7791 Y1.1676
G01 X15.8713 Y1.1813
G01 X15.9629 Y1.2043
G01 X16.0495 Y1.2353
G01 X16.1316 Y1.2741
G01 X16.2138 Y1.3231
G01 X16.2905 Y1.3802
G01 X16.3578 Y1.4412
G01 X16.4204 Y1.5103
G01 X16.4759 Y1.5852
G01 X16.5226 Y1.6630
G01 X16.5637 Y1.7495
G01 X16.5957 Y1.8396
G01 X16.6177 Y1.9277
G01 X16.6313 Y2.0187
G01 X16.6360 Y2.1130
G01 X16.6316 Y2.2037
G01 X16.6172 Y2.3007
G01 X16.5951 Y2.3888
G01 X16.5637 Y2.4765
G01 X16.5238 Y2.5608
G01 X16.4766 Y2.6398
G01 X16.4204 Y2.7157
G01 X16.3594 Y2.7830
G01 X16.2877 Y2.8481
G01 X16.2138 Y2.9029
G01 X16.1338 Y2.9508
G01 X16.0495 Y2.9907
G01 X15.9861 Y3.0134
G01 X15.9861 Y6.2926
G01 X16.0495 Y6.3153
G01 X16.1338 Y6.3552
G01 X16.2138 Y6.4031
G01 X16.2867 Y6.4571
G01 X16.3594 Y6.5230
G01 X16.4204 Y6.5903
G01 X16.4752 Y6.6642
G01 X16.5249 Y6.7474
G01 X16.5637 Y6.8295
G01 X16.5951 Y6.9172
G01 X16.6177 Y7.0077
G01 X16.6311 Y7.0974
G01 X16.6360 Y7.1942
G01 X16.6314 Y7.2861
G01 X16.6177 Y7.3783
G01 X16.5951 Y7.4688
G01 X16.5637 Y7.5565
G01 X16.5238 Y7.6408
G01 X16.4759 Y7.7208
G01 X16.4204 Y7.7957
G01 X16.3594 Y7.8630
G01 X16.2867 Y7.9289
G01 X16.2138 Y7.9829
G01 X16.1316 Y8.0319
G01 X16.0495 Y8.0707
G01 X15.9618 Y8.1021
G01 X15.8713 Y8.1247
G01 X15.7779 Y8.1385
G01 X15.6860 Y8.1430
G01 X15.5929 Y8.1384
G01 X15.5007 Y8.1247
G01 X15.4102 Y8.1021
G01 X15.3225 Y8.0707
G01 X15.2382 Y8.0308
G01 X15.1582 Y7.9829
G01 X15.0833 Y7.9274
G01 X15.0142 Y7.8648
G01 X14.9516 Y7.7957
G01 X14.8961 Y7.7208
G01 X14.8482 Y7.6408
G01 X14.8083 Y7.5565
G01 X14.7769 Y7.4688
G01 X14.7543 Y7.3783
G01 X14.7405 Y7.2849
G01 X14.7360 Y7.1930
G01 X14.7406 Y7.0999
G01 X14.7543 Y7.0077
G01 X14.7763 Y6.9196
G01 X14.8093 Y6.8272
G01 X14.8482 Y6.7452
G01 X14.8954 Y6.6662
G01 X14.9532 Y6.5885
G01 X15.0142 Y6.5212
G01 X15.0843 Y6.4579
G01 X15.1582 Y6.4031
G01 X15.2382 Y6.3552
G01 X15.3225 Y6.3153
G01 X15.3859 Y6.2926
G01 X15.3859 Y3.0134
G00 Z5.0000
G00 X17.9259 Y3.0134
G01 F60.00
G01 Z-0.0000
G01 F120.00
G01 X17.8625 Y2.9907
G01 X17.7782 Y2.9508
G01 X17.6982 Y2.9029
G01 X17.6224 Y2.8466
G01 X17.5542 Y2.7848
G01 X17.4916 Y2.7157
G01 X17.4361 Y2.6408
G01 X17.3876 Y2.5597
G01 X17.3483 Y2.4765
G01 X17.3169 Y2.3888
G01 X17.2943 Y2.2983
G01 X17.2806 Y2.2061
G01 X17.2760 Y2.1130
G01 X17.2806 Y2.0199
G01 X17.2943 Y1.9277
G01 X17.3173 Y1.8361
G01 X17.3483 Y1.7495
G01 X17.3882 Y1.6652
G01 X17.4361 Y1.5852
G01 X17.4916 Y1.5103
G01 X17.5542 Y1.4412
G01 X17.6233 Y1.3786
G01 X17.6982 Y1.3231
G01 X17.7782 Y1.2752
G01 X17.8625 Y1.2353
G01 X17.9502 Y1.2039
G01 X18.0407 Y1.1813
G01 X18.1329 Y1.1676
G01 X18.2260 Y1.1630
G01 X18.3191 Y1.1676
G01 X18.4113 Y1.1813
G01 X18.5029 Y1.2043
G01 X18.5895 Y1.2353
G01 X18.6716 Y1.2741
G01 X18.7538 Y1.3231
G01 X18.8305 Y1.3802
G01 X18.8978 Y1.4412
G01 X18.9604 Y1.5103
G01 X19.0159 Y1.5852
G01 X19.0626 Y1.6630
G01 X19.1037 Y1.7495
G01 X19.1357 Y1.8396
G01 X19.1577 Y1.9277
G01 X19.1713 Y2.0187
G01 X19.1760 Y2.1130
G01 X19.1716 Y2.2037
G01 X19.1572 Y2.3007
G01 X19.1351 Y2.3888
G01 X19.1037 Y2.4765
G01 X19.0638 Y2.5608
G01 X19.0166 Y2.6398
G01 X18.9604 Y2.7157
G01 X18.8994 Y2.7830
G01 X18.8277 Y2.8481
G01 X18.7538 Y2.9029
G01 X18.6738 Y2.9508
G01 X18.5895 Y2.9907
G01 X18.5261 Y3.0134
G01 X18.5261 Y6.2926
G01 X18.5895 Y6.3153
G01 X18.6738 Y6.3552
G01 X18.7538 Y6.4031
G01 X18.8267 Y6.4571
G01 X18.8994 Y6.5230
G01 X18.9604 Y6.5903
G01 X19.0152 Y6.6642
G01 X19.0649 Y6.7474
G01 X19.1037 Y6.8295
G01 X19.1351 Y6.9172
G01 X19.1577 Y7.0077
G01 X19.1711 Y7.0974
G01 X19.1760 Y7.1942
G01 X19.1714 Y7.2861
G01 X19.1577 Y7.3783
G01 X19.1351 Y7.4688
G01 X19.1037 Y7.5565
G01 X19.0638 Y7.6408
G01 X19.0159 Y7.7208
G01 X18.9604 Y7.7957
G01 X18.8994 Y7.8630
G01 X18.8267 Y7.9289
G01 X18.7538 Y7.9829
G01 X18.6716 Y8.0319
G01 X18.5895 Y8.0707
G01 X18.5018 Y8.1021
G01 X18.4113 Y8.1247
G01 X18.3179 Y8.1385
G01 X18.2260 Y8.1430
G01 X18.1329 Y8.1384
G01 X18.0407 Y8.1247
G01 X17.9502 Y8.1021
G01 X17.8625 Y8.0707
G01 X17.7782 Y8.0308
G01 X17.6982 Y7.9829
G01 X17.6233 Y7.9274
G01 X17.5542 Y7.8648
G01 X17.4916 Y7.7957
G01 X17.4361 Y7.7208
G01 X17.3882 Y7.6408
G01 X17.3483 Y7.5565
G01 X17.3169 Y7.4688
G01 X17.2943 Y7.3783
G01 X17.2805 Y7.2849
G01 X17.2760 Y7.1930
G01 X17.2806 Y7.0999
G01 X17.2943 Y7.0077
G01 X17.3163 Y6.9196
G01 X17.3493 Y6.8272
G01 X17.3882 Y6.7452
G01 X17.4354 Y6.6662
G01 X17.4932 Y6.5885
G01 X17.5542 Y6.5212
G01 X17.6243 Y6.4579
G01 X17.6982 Y6.4031
G01 X17.7782 Y6.3552
G01 X17.8625 Y6.3153
G01 X17.9259 Y6.2926
G01 X17.9259 Y3.0134
G00 Z5.0000
G00 X20.4659 Y3.0134
G01 F60.00
G01 Z-0.0000
G01 F120.00
G01 X20.4025 Y2.9907
G01 X20.3182 Y2.9508
G01 X20.2382 Y2.9029
G01 X20.1624 Y2.8466
G01 X20.0942 Y2.7848
G01 X20.0316 Y2.7157
G01 X19.9761 Y2.6408
G01 X19.9276 Y2.5597
G01 X19.8883 Y2.4765
G01 X19.8569 Y2.3888
G01 X19.8343 Y2.2983
G01 X19.8206 Y2.2061
G01 X19.8160 Y2.1130
G01 X19.8206 Y2.0199
G01 X19.8343 Y1.9277
G01 X19.8573 Y1.8361
G01 X19.8883 Y1.7495
G01 X19.9282 Y1.6652
G01 X19.9761 Y1.5852
G01 X20.0316 Y1.5103
G01 X20.0942 Y1.4412
G01 X20.1633 Y1.3786
G01 X20.2382 Y1.3231
G01 X20.3182 Y1.2752
G01 X20.4025 Y1.2353
G01 X20.4902 Y1.2039
G01 X20.5807 Y1.1813
G01 X20.6729 Y1.1676
G01 X20.7660 Y1.1630
G01 X20.8591 Y1.1676
G01 X20.9513 Y1.1813
G01 X21.0429 Y1.2043
G01 X21.1295 Y1.2353
G01 X21.2116 Y1.2741
G01 X21.2938 Y1.3231
G01 X21.3687 Y1.3786
G01 X21.4360 Y1.4396
G01 X21.5004 Y1.5103
G01 X21.5559 Y1.5852
G01 X21.6026 Y1.6630
G01 X21.6437 Y1.7495
G01 X21.6757 Y1.8396
G01 X21.6977 Y1.9277
G01 X21.7113 Y2.0187
G01 X21.7160 Y2.1130
G01 X21.7116 Y2.2037
G01 X21.6972 Y2.3007
G01 X21.6751 Y2.3888
G01 X21.6437 Y2.4765
G01 X21.6038 Y2.5608
G01 X21.5566 Y2.6398
G01 X21.5004 Y2.7157
G01 X21.4394 Y2.7830
G01 X21.3677 Y2.8481
G01 X21.2938 Y2.9029
G01 X21.2138 Y2.9508
G01 X21.1295 Y2.9907
G01 X21.0661 Y3.0134
G01 X21.0661 Y6.2926
G01 X21.1295 Y6.3153
G01 X21.2138 Y6.3552
G01 X21.2938 Y6.4031
G01 X21.3667 Y6.4571
G01 X21.4394 Y6.5230
G01 X21.5004 Y6.5903
G01 X21.5552 Y6.6642
G01 X21.6049 Y6.7474
G01 X21.6437 Y6.8295
G01 X21.6751 Y6.9172
G01 X21.6977 Y7.0077
G01 X21.7111 Y7.0974
G01 X21.7160 Y7.1942
G01 X21.7114 Y7.2861
G01 X21.6977 Y7.3783
G01 X21.6751 Y7.4688
G01 X21.6437 Y7.5565
G01 X21.6038 Y7.6408
G01 X21.5559 Y7.7208
G01 X21.5004 Y7.7957
G01 X21.4394 Y7.8630
G01 X21.3667 Y7.9289
G01 X21.2938 Y7.9829
G01 X21.2116 Y8.0319
G01 X21.1295 Y8.0707
G01 X21.0418 Y8.1021
G01 X20.9513 Y8.1247
G01 X20.8579 Y8.1385
G01 X20.7660 Y8.1430
G01 X20.6729 Y8.1384
G01 X20.5807 Y8.1247
G01 X20.4902 Y8.1021
G01 X20.4025 Y8.0707
G01 X20.3182 Y8.0308
G01 X20.2382 Y7.9829
G01 X20.1633 Y7.9274
G01 X20.0942 Y7.8648
G01 X20.0316 Y7.7957
G01 X19.9761 Y7.7208
G01 X19.9282 Y7.6408
G01 X19.8883 Y7.5565
G01 X19.8569 Y7.4688
G01 X19.8343 Y7.3783
G01 X19.8205 Y7.2849
G01 X19.8160 Y7.1930
G01 X19.8206 Y7.0999
G01 X19.8343 Y7.0077
G01 X19.8563 Y6.9196
G01 X19.8893 Y6.8272
G01 X19.9282 Y6.7452
G01 X19.9754 Y6.6662
G01 X20.0316 Y6.5903
G01 X20.0926 Y6.5230
G01 X20.1643 Y6.4579
G01 X20.2382 Y6.4031
G01 X20.3182 Y6.3552
G01 X20.4025 Y6.3153
G01 X20.4659 Y6.2926
G01 X20.4659 Y3.0134
G00 Z5.0000
G00 X23.0059 Y3.0134
G01 F60.00
G01 Z-0.0000
G01 F120.00
G01 X22.9425 Y2.9907
G01 X22.8582 Y2.9508
G01 X22.7782 Y2.9029
G01 X22.7024 Y2.8466
G01 X22.6342 Y2.7848
G01 X22.5716 Y2.7157
G01 X22.5161 Y2.6408
G01 X22.4676 Y2.5597
G01 X22.4283 Y2.4765
G01 X22.3969 Y2.3888
G01 X22.3743 Y2.2983
G01 X22.3606 Y2.2061
G01 X22.3560 Y2.1130
G01 X22.3606 Y2.0199
G01 X22.3743 Y1.9277
G01 X22.3973 Y1.8361
G01 X22.4283 Y1.7495
G01 X22.4682 Y1.6652
G01 X22.5161 Y1.5852
G01 X22.5716 Y1.5103
G01 X22.6342 Y1.4412
G01 X22.7033 Y1.3786
G01 X22.7782 Y1.3231
G01 X22.8582 Y1.2752
G01 X22.9425 Y1.2353
G01 X23.0302 Y1.2039
G01 X23.1207 Y1.1813
G01 X23.2129 Y1.1676
G01 X23.3060 Y1.1630
G01 X23.3991 Y1.1676
G01 X23.4913 Y1.1813
G01 X23.5829 Y1.2043
G01 X23.6695 Y1.2353
G01 X23.7516 Y1.2741
G01 X23.8338 Y1.3231
G01 X23.9087 Y1.3786
G01 X23.9760 Y1.4396
G01 X24.0404 Y1.5103
G01 X24.0959 Y1.5852
G01 X24.1426 Y1.6630
G01 X24.1837 Y1.7495
G01 X24.2157 Y1.8396
G01 X24.2377 Y1.9277
G01 X24.2513 Y2.0187
G01 X24.2560 Y2.1130
G01 X24.2516 Y2.2037
G01 X24.2372 Y2.3007
G01 X24.2151 Y2.3888
G01 X24.1837 Y2.4765
G01 X24.1438 Y2.5608
G01 X24.0966 Y2.6398
G01 X24.0404 Y2.7157
G01 X23.9794 Y2.7830
G01 X23.9077 Y2.8481
G01 X23.8338 Y2.9029
G01 X23.7538 Y2.9508
G01 X23.6695 Y2.9907
G01 X23.6061 Y3.0134
G01 X23.6061 Y6.2926
G01 X23.6695 Y6.3153
G01 X23.7538 Y6.3552
G01 X23.8338 Y6.4031
G01 X23.9067 Y6.4571
G01 X23.9794 Y6.5230
G01 X24.0404 Y6.5903
G01 X24.0952 Y6.6642
G01 X24.1449 Y6.7474
G01 X24.1837 Y6.8295
G01 X24.2151 Y6.9172
G01 X24.2377 Y7.0077
G01 X24.2511 Y7.0974
G01 X24.2560 Y7.1942
G01 X24.2514 Y7.2861
G01 X24.2377 Y7.3783
G01 X24.2151 Y7.4688
G01 X24.1837 Y7.5565
G01 X24.1438 Y7.6408
G01 X24.0959 Y7.7208
G01 X24.0404 Y7.7957
G01 X23.9794 Y7.8630
G01 X23.9067 Y7.9289
G01 X23.8338 Y7.9829
G01 X23.7516 Y8.0319
G01 X23.6695 Y8.0707
G01 X23.5818 Y8.1021
G01 X23.4913 Y8.1247
G01 X23.3979 Y8.1385
G01 X23.3060 Y8.1430
G01 X23.2129 Y8.1384
G01 X23.1207 Y8.1247
G01 X23.0302 Y8.1021
G01 X22.9425 Y8.0707
G01 X22.8582 Y8.0308
G01 X22.7782 Y7.9829
G01 X22.7033 Y7.9274
G01 X22.6342 Y7.8648
G01 X22.5716 Y7.7957
G01 X22.5161 Y7.7208
G01 X22.4682 Y7.6408
G01 X22.4283 Y7.5565
G01 X22.3969 Y7.4688
G01 X22.3743 Y7.3783
G01 X22.3605 Y7.2849
G01 X22.3560 Y7.1930
G01 X22.3604 Y7.1023
G01 X22.3748 Y7.0053
G01 X22.3969 Y6.9172
G01 X22.4283 Y6.8295
G01 X22.4682 Y6.7452
G01 X22.5154 Y6.6662
G01 X22.5716 Y6.5903
G01 X22.6326 Y6.5230
G01 X22.7043 Y6.4579
G01 X22.7782 Y6.4031
G01 X22.8582 Y6.3552
G01 X22.9425 Y6.3153
G01 X23.0059 Y6.2926
G01 X23.0059 Y3.0134
G00 Z5.0000
G00 X37.3569 Y2.8864
G01 F60.00
G01 Z-0.0000
G01 F120.00
G01 X37.2935 Y2.8637
G01 X37.2092 Y2.8238
G01 X37.1292 Y2.7759
G01 X37.0534 Y2.7196
G01 X36.9852 Y2.6578
G01 X36.9226 Y2.5887
G01 X36.8671 Y2.5138
G01 X36.8186 Y2.4327
G01 X36.7793 Y2.3495
G01 X36.7479 Y2.2618
G01 X36.7253 Y2.1713
G01 X36.7116 Y2.0791
G01 X36.7070 Y1.9860
G01 X36.7116 Y1.8929
G01 X36.7253 Y1.8007
G01 X36.7483 Y1.7091
G01 X36.7793 Y1.6225
G01 X36.8192 Y1.5382
G01 X36.8671 Y1.4582
G01 X36.9226 Y1.3833
G01 X36.9852 Y1.3142
G01 X37.0543 Y1.2516
G01 X37.1292 Y1.1961
G01 X37.2092 Y1.1482
G01 X37.2935 Y1.1083
G01 X37.3812 Y1.0769
G01 X37.4717 Y1.0543
G01 X37.5639 Y1.0406
G01 X37.6570 Y1.0360
G01 X37.7501 Y1.0406
G01 X37.8423 Y1.0543
G01 X37.9339 Y1.0773
G01 X38.0205 Y1.1083
G01 X38.1026 Y1.1471
G01 X38.1848 Y1.1961
G01 X38.2597 Y1.2516
G01 X38.3270 Y1.3126
G01 X38.3914 Y1.3833
G01 X38.4469 Y1.4582
G01 X38.4936 Y1.5360
G01 X38.5347 Y1.6225
G01 X38.5667 Y1.7126
G01 X38.5887 Y1.8007
G01 X38.6023 Y1.8917
G01 X38.6070 Y1.9860
G01 X38.6026 Y2.0767
G01 X38.5882 Y2.1737
G01 X38.5661 Y2.2618
G01 X38.5347 Y2.3495
G01 X38.4948 Y2.4338
G01 X38.4476 Y2.5128
G01 X38.3914 Y2.5887
G01 X38.3304 Y2.6560
G01 X38.2587 Y2.7211
G01 X38.1848 Y2.7759
G01 X38.1048 Y2.8238
G01 X38.0205 Y2.8637
G01 X37.9571 Y2.8864
G01 X37.9571 Y6.1656
G01 X38.0205 Y6.1883
G01 X38.1048 Y6.2282
G01 X38.1848 Y6.2761
G01 X38.2577 Y6.3301
G01 X38.3304 Y6.3960
G01 X38.3914 Y6.4633
G01 X38.4462 Y6.5372
G01 X38.4959 Y6.6204
G01 X38.5347 Y6.7025
G01 X38.5661 Y6.7902
G01 X38.5887 Y6.8807
G01 X38.6021 Y6.9704
G01 X38.6070 Y7.0672
G01 X38.6024 Y7.1591
G01 X38.5887 Y7.2513
G01 X38.5661 Y7.3418
G01 X38.5347 Y7.4295
G01 X38.4948 Y7.5138
G01 X38.4469 Y7.5938
G01 X38.3914 Y7.6687
G01 X38.3304 Y7.7360
G01 X38.2577 Y7.8019
G01 X38.1848 Y7.8559
G01 X38.1026 Y7.9049
G01 X38.0205 Y7.9437
G01 X37.9328 Y7.9751
G01 X37.8423 Y7.9977
G01 X37.7489 Y8.0115
G01 X37.6570 Y8.0160
G01 X37.5639 Y8.0114
G01 X37.4717 Y7.9977
G01 X37.3812 Y7.9751
G01 X37.2935 Y7.9437
G01 X37.2092 Y7.9038
G01 X37.1292 Y7.8559
G01 X37.0543 Y7.8004
G01 X36.9852 Y7.7378
G01 X36.9226 Y7.6687
G01 X36.8671 Y7.5938
G01 X36.8192 Y7.5138
G01 X36.7793 Y7.4295
G01 X36.7479 Y7.3418
G01 X36.7253 Y7.2513
G01 X36.7115 Y7.1579
G01 X36.7070 Y7.0660
G01 X36.7114 Y6.9753
G01 X36.7258 Y6.8783
G01 X36.7479 Y6.7902
G01 X36.7793 Y6.7025
G01 X36.8192 Y6.6182
G01 X36.8664 Y6.5392
G01 X36.9226 Y6.4633
G01 X36.9836 Y6.3960
G01 X37.0553 Y6.3309
G01 X37.1292 Y6.2761
G01 X37.2092 Y6.2282
G01 X37.2935 Y6.1883
G01 X37.3569 Y6.1656
G01 X37.3569 Y2.8864
G00 Z5.0000
G00 X41.1469 Y1.9885
G01 F60.00
G01 Z-0.0000
G01 F120.00
G01 X41.1424 Y2.0791
G01 X41.1287 Y2.1713
G01 X41.1061 Y2.2618
G01 X41.0747 Y2.3495
G01 X41.0348 Y2.4338
G01 X40.9869 Y2.5138
G01 X40.9314 Y2.5887
G01 X40.8688 Y2.6578
G01 X40.7997 Y2.7204
G01 X40.7248 Y2.7759
G01 X40.6448 Y2.8238
G01 X40.5605 Y2.8637
G01 X40.4728 Y2.8951
G01 X40.3823 Y2.9177
G01 X40.2901 Y2.9314
G01 X40.1970 Y2.9360
G01 X40.1039 Y2.9314
G01 X40.0117 Y2.9177
G01 X39.9212 Y2.8951
G01 X39.8335 Y2.8637
G01 X39.7492 Y2.8238
G01 X39.6692 Y2.7759
G01 X39.5943 Y2.7204
G01 X39.5252 Y2.6578
G01 X39.4626 Y2.5887
G01 X39.4071 Y2.5138
G01 X39.3592 Y2.4338
G01 X39.3193 Y2.3495
G01 X39.2879 Y2.2618
G01 X39.2653 Y2.1713
G01 X39.2516 Y2.0791
G01 X39.2470 Y1.9860
G01 X39.2516 Y1.8929
G01 X39.2653 Y1.8007
G01 X39.2879 Y1.7102
G01 X39.3193 Y1.6225
G01 X39.3592 Y1.5382
G01 X39.4071 Y1.4582
G01 X39.4626 Y1.3833
G01 X39.5252 Y1.3142
G01 X39.5943 Y1.2516
G01 X39.6692 Y1.1961
G01 X39.7492 Y1.1482
G01 X39.8335 Y1.1083
G01 X39.9212 Y1.0769
G01 X40.0117 Y1.0543
G01 X40.1039 Y1.0406
G01 X40.1970 Y1.0360
G01 X40.2901 Y1.0406
G01 X40.3823 Y1.0543
G01 X40.4728 Y1.0769
G01 X40.5605 Y1.1083
G01 X40.6448 Y1.1482
G01 X40.7248 Y1.1961
G01 X40.7997 Y1.2516
G01 X40.8688 Y1.3142
G01 X40.9314 Y1.3833
G01 X40.9869 Y1.4582
G01 X41.0348 Y1.5382
G01 X41.0747 Y1.6225
G01 X41.1061 Y1.7102
G01 X41.1287 Y1.8007
G01 X41.1424 Y1.8929
G01 X41.1469 Y1.9885
G00 Z5.0000
G00 X43.6869 Y1.9885
G01 F60.00
G01 Z-0.0000
G01 F120.00
G01 X43.6824 Y2.0791
G01 X43.6687 Y2.1713
G01 X43.6461 Y2.2618
G01 X43.6147 Y2.3495
G01 X43.5748 Y2.4338
G01 X43.5269 Y2.5138
G01 X43.4714 Y2.5887
G01 X43.4088 Y2.6578
G01 X43.3397 Y2.7204
G01 X43.2648 Y2.7759
G01 X43.1848 Y2.8238
G01 X43.1005 Y2.8637
G01 X43.0128 Y2.8951
G01 X42.9223 Y2.9177
G01 X42.8301 Y2.9314
G01 X42.7370 Y2.9360
G01 X42.6439 Y2.9314
G01 X42.5517 Y2.9177
G01 X42.4612 Y2.8951
G01 X42.3735 Y2.8637
G01 X42.2892 Y2.8238
G01 X42.2092 Y2.7759
G01 X42.1343 Y2.7204
G01 X42.0652 Y2.6578
G01 X42.0026 Y2.5887
G01 X41.9471 Y2.5138
G01 X41.8992 Y2.4338
G01 X41.8593 Y2.3495
G01 X41.8279 Y2.2618
G01 X41.8053 Y2.1713
G01 X41.7916 Y2.0791
G01 X41.7870 Y1.9860
G01 X41.7916 Y1.8929
G01 X41.8053 Y1.8007
G01 X41.8279 Y1.7102
G01 X41.8593 Y1.6225
G01 X41.8992 Y1.5382
G01 X41.9471 Y1.4582
G01 X42.0026 Y1.3833
G01 X42.0652 Y1.3142
G01 X42.1343 Y1.2516
G01 X42.2092 Y1.1961
G01 X42.2892 Y1.1482
G01 X42.3735 Y1.1083
G01 X42.4612 Y1.0769
G01 X42.5517 Y1.0543
G01 X42.6439 Y1.0406
G01 X42.7370 Y1.0360
G01 X42.8301 Y1.0406
G01 X42.9223 Y1.0543
G01 X43.0128 Y1.0769
G01 X43.1005 Y1.1083
G01 X43.1848 Y1.1482
G01 X43.2648 Y1.1961
G01 X43.3397 Y1.2516
G01 X43.4088 Y1.3142
G01 X43.4714 Y1.3833
G01 X43.5269 Y1.4582
G01 X43.5748 Y1.5382
G01 X43.6147 Y1.6225
G01 X43.6461 Y1.7102
G01 X43.6687 Y1.8007
G01 X43.6824 Y1.8929
G01 X43.6869 Y1.9885
G00 Z5.0000
G00 X46.2269 Y1.9885
G01 F60.00
G01 Z-0.0000
G01 F120.00
G01 X46.2224 Y2.0791
G01 X46.2087 Y2.1713
G01 X46.1861 Y2.2618
G01 X46.1547 Y2.3495
G01 X46.1148 Y2.4338
G01 X46.0669 Y2.5138
G01 X46.0114 Y2.5887
G01 X45.9488 Y2.6578
G01 X45.8797 Y2.7204
G01 X45.8048 Y2.7759
G01 X45.7248 Y2.8238
G01 X45.6405 Y2.8637
G01 X45.5528 Y2.8951
G01 X45.4623 Y2.9177
G01 X45.3701 Y2.9314
G01 X45.2770 Y2.9360
G01 X45.1839 Y2.9314
G01 X45.0917 Y2.9177
G01 X45.0012 Y2.8951
G01 X44.9135 Y2.8637
G01 X44.8292 Y2.8238
G01 X44.7492 Y2.7759
G01 X44.6743 Y2.7204
G01 X44.6052 Y2.6578
G01 X44.5426 Y2.5887
G01 X44.4871 Y2.5138
G01 X44.4392 Y2.4338
G01 X44.3993 Y2.3495
G01 X44.3679 Y2.2618
G01 X44.3453 Y2.1713
G01 X44.3316 Y2.0791
G01 X44.3270 Y1.9860
G01 X44.3316 Y1.8929
G01 X44.3453 Y1.8007
G01 X44.3679 Y1.7102
G01 X44.3993 Y1.6225
G01 X44.4392 Y1.5382
G01 X44.4871 Y1.4582
G01 X44.5426 Y1.3833
G01 X44.6052 Y1.3142
G01 X44.6743 Y1.2516
G01 X44.7492 Y1.1961
G01 X44.8292 Y1.1482
G01 X44.9135 Y1.1083
G01 X45.0012 Y1.0769
G01 X45.0917 Y1.0543
G01 X45.1839 Y1.0406
G01 X45.2770 Y1.0360
G01 X45.3701 Y1.0406
G01 X45.4623 Y1.0543
G01 X45.5528 Y1.0769
G01 X45.6405 Y1.1083
G01 X45.7248 Y1.1482
G01 X45.8048 Y1.1961
G01 X45.8797 Y1.2516
G01 X45.9488 Y1.3142
G01 X46.0114 Y1.3833
G01 X46.0669 Y1.4582
G01 X46.1148 Y1.5382
G01 X46.1547 Y1.6225
G01 X46.1861 Y1.7102
G01 X46.2087 Y1.8007
G01 X46.2224 Y1.8929
G01 X46.2269 Y1.9885
G00 Z5.0000
G00 X48.7669 Y1.9885
G01 F60.00
G01 Z-0.0000
G01 F120.00
G01 X48.7624 Y2.0791
G01 X48.7487 Y2.1713
G01 X48.7261 Y2.2618
G01 X48.6947 Y2.3495
G01 X48.6548 Y2.4338
G01 X48.6069 Y2.5138
G01 X48.5514 Y2.5887
G01 X48.4888 Y2.6578
G01 X48.4197 Y2.7204
G01 X48.3448 Y2.7759
G01 X48.2648 Y2.8238
G01 X48.1805 Y2.8637
G01 X48.0928 Y2.8951
G01 X48.0023 Y2.9177
G01 X47.9101 Y2.9314
G01 X47.8170 Y2.9360
G01 X47.7239 Y2.9314
G01 X47.6317 Y2.9177
G01 X47.5412 Y2.8951
G01 X47.4535 Y2.8637
G01 X47.3692 Y2.8238
G01 X47.2892 Y2.7759
G01 X47.2143 Y2.7204
G01 X47.1452 Y2.6578
G01 X47.0826 Y2.5887
G01 X47.0271 Y2.5138
G01 X46.9792 Y2.4338
G01 X46.9393 Y2.3495
G01 X46.9079 Y2.2618
G01 X46.8853 Y2.1713
G01 X46.8716 Y2.0791
G01 X46.8670 Y1.9860
G01 X46.8716 Y1.8929
G01 X46.8853 Y1.8007
G01 X46.9079 Y1.7102
G01 X46.9393 Y1.6225
G01 X46.9792 Y1.5382
G01 X47.0271 Y1.4582
G01 X47.0826 Y1.3833
G01 X47.1452 Y1.3142
G01 X47.2143 Y1.2516
G01 X47.2892 Y1.1961
G01 X47.3692 Y1.1482
G01 X47.4535 Y1.1083
G01 X47.5412 Y1.0769
G01 X47.6317 Y1.0543
G01 X47.7239 Y1.0406
G01 X47.8170 Y1.0360
G01 X47.9101 Y1.0406
G01 X48.0023 Y1.0543
G01 X48.0928 Y1.0769
G01 X48.1805 Y1.1083
G01 X48.2648 Y1.1482
G01 X48.3448 Y1.1961
G01 X48.4197 Y1.2516
G01 X48.4888 Y1.3142
G01 X48.5514 Y1.3833
G01 X48.6069 Y1.4582
G01 X48.6548 Y1.5382
G01 X48.6947 Y1.6225
G01 X48.7261 Y1.7102
G01 X48.7487 Y1.8007
G01 X48.7624 Y1.8929
G01 X48.7669 Y1.9885
G00 Z5.0000
G00 X51.3069 Y1.9885
G01 F60.00
G01 Z-0.0000
G01 F120.00
G01 X51.3024 Y2.0791
G01 X51.2887 Y2.1713
G01 X51.2661 Y2.2618
G01 X51.2347 Y2.3495
G01 X51.1948 Y2.4338
G01 X51.1469 Y2.5138
G01 X51.0914 Y2.5887
G01 X51.0288 Y2.6578
G01 X50.9597 Y2.7204
G01 X50.8848 Y2.7759
G01 X50.8048 Y2.8238
G01 X50.7205 Y2.8637
G01 X50.6328 Y2.8951
G01 X50.5423 Y2.9177
G01 X50.4501 Y2.9314
G01 X50.3570 Y2.9360
G01 X50.2639 Y2.9314
G01 X50.1717 Y2.9177
G01 X50.0812 Y2.8951
G01 X49.9935 Y2.8637
G01 X49.9092 Y2.8238
G01 X49.8292 Y2.7759
G01 X49.7543 Y2.7204
G01 X49.6852 Y2.6578
G01 X49.6226 Y2.5887
G01 X49.5671 Y2.5138
G01 X49.5192 Y2.4338
G01 X49.4793 Y2.3495
G01 X49.4479 Y2.2618
G01 X49.4253 Y2.1713
G01 X49.4116 Y2.0791
G01 X49.4070 Y1.9860
G01 X49.4116 Y1.8929
G01 X49.4253 Y1.8007
G01 X49.4479 Y1.7102
G01 X49.4793 Y1.6225
G01 X49.5192 Y1.5382
G01 X49.5671 Y1.4582
G01 X49.6226 Y1.3833
G01 X49.6852 Y1.3142
G01 X49.7543 Y1.2516
G01 X49.8292 Y1.1961
G01 X49.9092 Y1.1482
G01 X49.9935 Y1.1083
G01 X50.0812 Y1.0769
G01 X50.1717 Y1.0543
G01 X50.2639 Y1.0406
G01 X50.3570 Y1.0360
G01 X50.4501 Y1.0406
G01 X50.5423 Y1.0543
G01 X50.6328 Y1.0769
G01 X50.7205 Y1.1083
G01 X50.8048 Y1.1482
G01 X50.8848 Y1.1961
G01 X50.9597 Y1.2516
G01 X51.0288 Y1.3142
G01 X51.0914 Y1.3833
G01 X51.1469 Y1.4582
G01 X51.1948 Y1.5382
G01 X51.2347 Y1.6225
G01 X51.2661 Y1.7102
G01 X51.2887 Y1.8007
G01 X51.3024 Y1.8929
G01 X51.3069 Y1.9885
G00 Z5.0000
G00 X53.8469 Y1.9885
G01 F60.00
G01 Z-0.0000
G01 F120.00
G01 X53.8424 Y2.0791
G01 X53.8287 Y2.1713
G01 X53.8061 Y2.2618
G01 X53.7747 Y2.3495
G01 X53.7348 Y2.4338
G01 X53.6869 Y2.5138
G01 X53.6314 Y2.5887
G01 X53.5688 Y2.6578
G01 X53.4997 Y2.7204
G01 X53.4248 Y2.7759
G01 X53.3448 Y2.8238
G01 X53.2605 Y2.8637
G01 X53.1728 Y2.8951
G01 X53.0823 Y2.9177
G01 X52.9901 Y2.9314
G01 X52.8970 Y2.9360
G01 X52.8039 Y2.9314
G01 X52.7117 Y2.9177
G01 X52.6212 Y2.8951
G01 X52.5335 Y2.8637
G01 X52.4492 Y2.8238
G01 X52.3692 Y2.7759
G01 X52.2943 Y2.7204
G01 X52.2252 Y2.6578
G01 X52.1626 Y2.5887
G01 X52.1071 Y2.5138
G01 X52.0592 Y2.4338
G01 X52.0193 Y2.3495
G01 X51.9879 Y2.2618
G01 X51.9653 Y2.1713
G01 X51.9516 Y2.0791
G01 X51.9470 Y1.9860
G01 X51.9516 Y1.8929
G01 X51.9653 Y1.8007
G01 X51.9879 Y1.7102
G01 X52.0193 Y1.6225
G01 X52.0592 Y1.5382
G01 X52.1071 Y1.4582
G01 X52.1626 Y1.3833
G01 X52.2252 Y1.3142
G01 X52.2943 Y1.2516
G01 X52.3692 Y1.1961
G01 X52.4492 Y1.1482
G01 X52.5335 Y1.1083
G01 X52.6212 Y1.0769
G01 X52.7117 Y1.0543
G01 X52.8039 Y1.0406
G01 X52.8970 Y1.0360
G01 X52.9901 Y1.0406
G01 X53.0823 Y1.0543
G01 X53.1728 Y1.0769
G01 X53.2605 Y1.1083
G01 X53.3448 Y1.1482
G01 X53.4248 Y1.1961
G01 X53.4997 Y1.2516
G01 X53.5688 Y1.3142
G01 X53.6314 Y1.3833
G01 X53.6869 Y1.4582
G01 X53.7348 Y1.5382
G01 X53.7747 Y1.6225
G01 X53.8061 Y1.7102
G01 X53.8287 Y1.8007
G01 X53.8424 Y1.8929
G01 X53.8469 Y1.9885
G00 Z5.0000
G00 X56.3869 Y1.9885
G01 F60.00
G01 Z-0.0000
G01 F120.00
G01 X56.3824 Y2.0791
G01 X56.3687 Y2.1713
G01 X56.3461 Y2.2618
G01 X56.3147 Y2.3495
G01 X56.2748 Y2.4338
G01 X56.2269 Y2.5138
G01 X56.1714 Y2.5887
G01 X56.1088 Y2.6578
G01 X56.0397 Y2.7204
G01 X55.9648 Y2.7759
G01 X55.8848 Y2.8238
G01 X55.8005 Y2.8637
G01 X55.7128 Y2.8951
G01 X55.6223 Y2.9177
G01 X55.5301 Y2.9314
G01 X55.4370 Y2.9360
G01 X55.3439 Y2.9314
G01 X55.2517 Y2.9177
G01 X55.1612 Y2.8951
G01 X55.0735 Y2.8637
G01 X54.9892 Y2.8238
G01 X54.9092 Y2.7759
G01 X54.8343 Y2.7204
G01 X54.7652 Y2.6578
G01 X54.7026 Y2.5887
G01 X54.6471 Y2.5138
G01 X54.5992 Y2.4338
G01 X54.5593 Y2.3495
G01 X54.5279 Y2.2618
G01 X54.5053 Y2.1713
G01 X54.4916 Y2.0791
G01 X54.4870 Y1.9860
G01 X54.4916 Y1.8929
G01 X54.5053 Y1.8007
G01 X54.5279 Y1.7102
G01 X54.5593 Y1.6225
G01 X54.5992 Y1.5382
G01 X54.6471 Y1.4582
G01 X54.7026 Y1.3833
G01 X54.7652 Y1.3142
G01 X54.8343 Y1.2516
G01 X54.9092 Y1.1961
G01 X54.9892 Y1.1482
G01 X55.0735 Y1.1083
G01 X55.1612 Y1.0769
G01 X55.2517 Y1.0543
G01 X55.3439 Y1.0406
G01 X55.4370 Y1.0360
G01 X55.5301 Y1.0406
G01 X55.6223 Y1.0543
G01 X55.7128 Y1.0769
G01 X55.8005 Y1.1083
G01 X55.8848 Y1.1482
G01 X55.9648 Y1.1961
G01 X56.0397 Y1.2516
G01 X56.1088 Y1.3142
G01 X56.1714 Y1.3833
G01 X56.2269 Y1.4582
G01 X56.2748 Y1.5382
G01 X56.3147 Y1.6225
G01 X56.3461 Y1.7102
G01 X56.3687 Y1.8007
G01 X56.3824 Y1.8929
G01 X56.3869 Y1.9885
G00 Z5.0000
G00 X56.3869 Y7.0685
G01 F60.00
G01 Z-0.0000
G01 F120.00
G01 X56.3824 Y7.1591
G01 X56.3687 Y7.2513
G01 X56.3461 Y7.3418
G01 X56.3147 Y7.4295
G01 X56.2748 Y7.5138
G01 X56.2269 Y7.5938
G01 X56.1714 Y7.6687
G01 X56.1088 Y7.7378
G01 X56.0397 Y7.8004
G01 X55.9648 Y7.8559
G01 X55.8848 Y7.9038
G01 X55.8005 Y7.9437
G01 X55.7128 Y7.9751
G01 X55.6223 Y7.9977
G01 X55.5301 Y8.0114
G01 X55.4370 Y8.0160
G01 X55.3439 Y8.0114
G01 X55.2517 Y7.9977
G01 X55.1612 Y7.9751
G01 X55.0735 Y7.9437
G01 X54.9892 Y7.9038
G01 X54.9092 Y7.8559
G01 X54.8343 Y7.8004
G01 X54.7652 Y7.7378
G01 X54.7026 Y7.6687
G01 X54.6471 Y7.5938
G01 X54.5992 Y7.5138
G01 X54.5593 Y7.4295
G01 X54.5279 Y7.3418
G01 X54.5053 Y7.2513
G01 X54.4916 Y7.1591
G01 X54.4870 Y7.0660
G01 X54.4916 Y6.9729
G01 X54.5053 Y6.8807
G01 X54.5279 Y6.7902
G01 X54.5593 Y6.7025
G01 X54.5992 Y6.6182
G01 X54.6471 Y6.5382
G01 X54.7026 Y6.4633
G01 X54.7652 Y6.3942
G01 X54.8343 Y6.3316
G01 X54.9092 Y6.2761
G01 X54.9892 Y6.2282
G01 X55.0735 Y6.1883
G01 X55.1612 Y6.1569
G01 X55.2517 Y6.1343
G01 X55.3439 Y6.1206
G01 X55.4370 Y6.1160
G01 X55.5301 Y6.1206
G01 X55.6223 Y6.1343
G01 X55.7128 Y6.1569
G01 X55.8005 Y6.1883
G01 X55.8848 Y6.2282
G01 X55.9648 Y6.2761
G01 X56.0397 Y6.3316
G01 X56.1088 Y6.3942
G01 X56.1714 Y6.4633
G01 X56.2269 Y6.5382
G01 X56.2748 Y6.6182
G01 X56.3147 Y6.7025
G01 X56.3461 Y6.7902
G01 X56.3687 Y6.8807
G01 X56.3824 Y6.9729
G01 X56.3869 Y7.0685
G00 Z5.0000
G00 X53.8469 Y7.0685
G01 F60.00
G01 Z-0.0000
G01 F120.00
G01 X53.8424 Y7.1591
G01 X53.8287 Y7.2513
G01 X53.8061 Y7.3418
G01 X53.7747 Y7.4295
G01 X53.7348 Y7.5138
G01 X53.6869 Y7.5938
G01 X53.6314 Y7.6687
G01 X53.5688 Y7.7378
G01 X53.4997 Y7.8004
G01 X53.4248 Y7.8559
G01 X53.3448 Y7.9038
G01 X53.2605 Y7.9437
G01 X53.1728 Y7.9751
G01 X53.0823 Y7.9977
G01 X52.9901 Y8.0114
G01 X52.8970 Y8.0160
G01 X52.8039 Y8.0114
G01 X52.7117 Y7.9977
G01 X52.6212 Y7.9751
G01 X52.5335 Y7.9437
G01 X52.4492 Y7.9038
G01 X52.3692 Y7.8559
G01 X52.2943 Y7.8004
G01 X52.2252 Y7.7378
G01 X52.1626 Y7.6687
G01 X52.1071 Y7.5938
G01 X52.0592 Y7.5138
G01 X52.0193 Y7.4295
G01 X51.9879 Y7.3418
G01 X51.9653 Y7.2513
G01 X51.9516 Y7.1591
G01 X51.9470 Y7.0660
G01 X51.9516 Y6.9729
G01 X51.9653 Y6.8807
G01 X51.9879 Y6.7902
G01 X52.0193 Y6.7025
G01 X52.0592 Y6.6182
G01 X52.1071 Y6.5382
G01 X52.1626 Y6.4633
G01 X52.2252 Y6.3942
G01 X52.2943 Y6.3316
G01 X52.3692 Y6.2761
G01 X52.4492 Y6.2282
G01 X52.5335 Y6.1883
G01 X52.6212 Y6.1569
G01 X52.7117 Y6.1343
G01 X52.8039 Y6.1206
G01 X52.8970 Y6.1160
G01 X52.9901 Y6.1206
G01 X53.0823 Y6.1343
G01 X53.1728 Y6.1569
G01 X53.2605 Y6.1883
G01 X53.3448 Y6.2282
G01 X53.4248 Y6.2761
G01 X53.4997 Y6.3316
G01 X53.5688 Y6.3942
G01 X53.6314 Y6.4633
G01 X53.6869 Y6.5382
G01 X53.7348 Y6.6182
G01 X53.7747 Y6.7025
G01 X53.8061 Y6.7902
G01 X53.8287 Y6.8807
G01 X53.8424 Y6.9729
G01 X53.8469 Y7.0685
G00 Z5.0000
G00 X48.7669 Y7.0685
G01 F60.00
G01 Z-0.0000
G01 F120.00
G01 X48.7624 Y7.1591
G01 X48.7487 Y7.2513
G01 X48.7261 Y7.3418
G01 X48.6947 Y7.4295
G01 X48.6548 Y7.5138
G01 X48.6069 Y7.5938
G01 X48.5514 Y7.6687
G01 X48.4888 Y7.7378
G01 X48.4197 Y7.8004
G01 X48.3448 Y7.8559
G01 X48.2648 Y7.9038
G01 X48.1805 Y7.9437
G01 X48.0928 Y7.9751
G01 X48.0023 Y7.9977
G01 X47.9101 Y8.0114
G01 X47.8170 Y8.0160
G01 X47.7239 Y8.0114
G01 X47.6317 Y7.9977
G01 X47.5412 Y7.9751
G01 X47.4535 Y7.9437
G01 X47.3692 Y7.9038
G01 X47.2892 Y7.8559
G01 X47.2143 Y7.8004
G01 X47.1452 Y7.7378
G01 X47.0826 Y7.6687
G01 X47.0271 Y7.5938
G01 X46.9792 Y7.5138
G01 X46.9393 Y7.4295
G01 X46.9079 Y7.3418
G01 X46.8853 Y7.2513
G01 X46.8716 Y7.1591
G01 X46.8670 Y7.0660
G01 X46.8716 Y6.9729
G01 X46.8853 Y6.8807
G01 X46.9079 Y6.7902
G01 X46.9393 Y6.7025
G01 X46.9792 Y6.6182
G01 X47.0271 Y6.5382
G01 X47.0826 Y6.4633
G01 X47.1452 Y6.3942
G01 X47.2143 Y6.3316
G01 X47.2892 Y6.2761
G01 X47.3692 Y6.2282
G01 X47.4535 Y6.1883
G01 X47.5412 Y6.1569
G01 X47.6317 Y6.1343
G01 X47.7239 Y6.1206
G01 X47.8170 Y6.1160
G01 X47.9101 Y6.1206
G01 X48.0023 Y6.1343
G01 X48.0928 Y6.1569
G01 X48.1805 Y6.1883
G01 X48.2648 Y6.2282
G01 X48.3448 Y6.2761
G01 X48.4197 Y6.3316
G01 X48.4888 Y6.3942
G01 X48.5514 Y6.4633
G01 X48.6069 Y6.5382
G01 X48.6548 Y6.6182
G01 X48.6947 Y6.7025
G01 X48.7261 Y6.7902
G01 X48.7487 Y6.8807
G01 X48.7624 Y6.9729
G01 X48.7669 Y7.0685
G00 Z5.0000
G00 X46.2269 Y7.0685
G01 F60.00
G01 Z-0.0000
G01 F120.00
G01 X46.2224 Y7.1591
G01 X46.2087 Y7.2513
G01 X46.1861 Y7.3418
G01 X46.1547 Y7.4295
G01 X46.1148 Y7.5138
G01 X46.0669 Y7.5938
G01 X46.0114 Y7.6687
G01 X45.9488 Y7.7378
G01 X45.8797 Y7.8004
G01 X45.8048 Y7.8559
G01 X45.7248 Y7.9038
G01 X45.6405 Y7.9437
G01 X45.5528 Y7.9751
G01 X45.4623 Y7.9977
G01 X45.3701 Y8.0114
G01 X45.2770 Y8.0160
G01 X45.1839 Y8.0114
G01 X45.0917 Y7.9977
G01 X45.0012 Y7.9751
G01 X44.9135 Y7.9437
G01 X44.8292 Y7.9038
G01 X44.7492 Y7.8559
G01 X44.6743 Y7.8004
G01 X44.6052 Y7.7378
G01 X44.5426 Y7.6687
G01 X44.4871 Y7.5938
G01 X44.4392 Y7.5138
G01 X44.3993 Y7.4295
G01 X44.3679 Y7.3418
G01 X44.3453 Y7.2513
G01 X44.3316 Y7.1591
G01 X44.3270 Y7.0660
G01 X44.3316 Y6.9729
G01 X44.3453 Y6.8807
G01 X44.3679 Y6.7902
G01 X44.3993 Y6.7025
G01 X44.4392 Y6.6182
G01 X44.4871 Y6.5382
G01 X44.5426 Y6.4633
G01 X44.6052 Y6.3942
G01 X44.6743 Y6.3316
G01 X44.7492 Y6.2761
G01 X44.8292 Y6.2282
G01 X44.9135 Y6.1883
G01 X45.0012 Y6.1569
G01 X45.0917 Y6.1343
G01 X45.1839 Y6.1206
G01 X45.2770 Y6.1160
G01 X45.3701 Y6.1206
G01 X45.4623 Y6.1343
G01 X45.5528 Y6.1569
G01 X45.6405 Y6.1883
G01 X45.7248 Y6.2282
G01 X45.8048 Y6.2761
G01 X45.8797 Y6.3316
G01 X45.9488 Y6.3942
G01 X46.0114 Y6.4633
G01 X46.0669 Y6.5382
G01 X46.1148 Y6.6182
G01 X46.1547 Y6.7025
G01 X46.1861 Y6.7902
G01 X46.2087 Y6.8807
G01 X46.2224 Y6.9729
G01 X46.2269 Y7.0685
G00 Z5.0000
G00 X43.6869 Y7.0685
G01 F60.00
G01 Z-0.0000
G01 F120.00
G01 X43.6824 Y7.1591
G01 X43.6687 Y7.2513
G01 X43.6461 Y7.3418
G01 X43.6147 Y7.4295
G01 X43.5748 Y7.5138
G01 X43.5269 Y7.5938
G01 X43.4714 Y7.6687
G01 X43.4088 Y7.7378
G01 X43.3397 Y7.8004
G01 X43.2648 Y7.8559
G01 X43.1848 Y7.9038
G01 X43.1005 Y7.9437
G01 X43.0128 Y7.9751
G01 X42.9223 Y7.9977
G01 X42.8301 Y8.0114
G01 X42.7370 Y8.0160
G01 X42.6439 Y8.0114
G01 X42.5517 Y7.9977
G01 X42.4612 Y7.9751
G01 X42.3735 Y7.9437
G01 X42.2892 Y7.9038
G01 X42.2092 Y7.8559
G01 X42.1343 Y7.8004
G01 X42.0652 Y7.7378
G01 X42.0026 Y7.6687
G01 X41.9471 Y7.5938
G01 X41.8992 Y7.5138
G01 X41.8593 Y7.4295
G01 X41.8279 Y7.3418
G01 X41.8053 Y7.2513
G01 X41.7916 Y7.1591
G01 X41.7870 Y7.0660
G01 X41.7916 Y6.9729
G01 X41.8053 Y6.8807
G01 X41.8279 Y6.7902
G01 X41.8593 Y6.7025
G01 X41.8992 Y6.6182
G01 X41.9471 Y6.5382
G01 X42.0026 Y6.4633
G01 X42.0652 Y6.3942
G01 X42.1343 Y6.3316
G01 X42.2092 Y6.2761
G01 X42.2892 Y6.2282
G01 X42.3735 Y6.1883
G01 X42.4612 Y6.1569
G01 X42.5517 Y6.1343
G01 X42.6439 Y6.1206
G01 X42.7370 Y6.1160
G01 X42.8301 Y6.1206
G01 X42.9223 Y6.1343
G01 X43.0128 Y6.1569
G01 X43.1005 Y6.1883
G01 X43.1848 Y6.2282
G01 X43.2648 Y6.2761
G01 X43.3397 Y6.3316
G01 X43.4088 Y6.3942
G01 X43.4714 Y6.4633
G01 X43.5269 Y6.5382
G01 X43.5748 Y6.6182
G01 X43.6147 Y6.7025
G01 X43.6461 Y6.7902
G01 X43.6687 Y6.8807
G01 X43.6824 Y6.9729
G01 X43.6869 Y7.0685
G00 Z5.0000
G00 X41.1469 Y7.0685
G01 F60.00
G01 Z-0.0000
G01 F120.00
G01 X41.1424 Y7.1591
G01 X41.1287 Y7.2513
G01 X41.1061 Y7.3418
G01 X41.0747 Y7.4295
G01 X41.0348 Y7.5138
G01 X40.9869 Y7.5938
G01 X40.9314 Y7.6687
G01 X40.8688 Y7.7378
G01 X40.7997 Y7.8004
G01 X40.7248 Y7.8559
G01 X40.6448 Y7.9038
G01 X40.5605 Y7.9437
G01 X40.4728 Y7.9751
G01 X40.3823 Y7.9977
G01 X40.2901 Y8.0114
G01 X40.1970 Y8.0160
G01 X40.1039 Y8.0114
G01 X40.0117 Y7.9977
G01 X39.9212 Y7.9751
G01 X39.8335 Y7.9437
G01 X39.7492 Y7.9038
G01 X39.6692 Y7.8559
G01 X39.5943 Y7.8004
G01 X39.5252 Y7.7378
G01 X39.4626 Y7.6687
G01 X39.4071 Y7.5938
G01 X39.3592 Y7.5138
G01 X39.3193 Y7.4295
G01 X39.2879 Y7.3418
G01 X39.2653 Y7.2513
G01 X39.2516 Y7.1591
G01 X39.2470 Y7.0660
G01 X39.2516 Y6.9729
G01 X39.2653 Y6.8807
G01 X39.2879 Y6.7902
G01 X39.3193 Y6.7025
G01 X39.3592 Y6.6182
G01 X39.4071 Y6.5382
G01 X39.4626 Y6.4633
G01 X39.5252 Y6.3942
G01 X39.5943 Y6.3316
G01 X39.6692 Y6.2761
G01 X39.7492 Y6.2282
G01 X39.8335 Y6.1883
G01 X39.9212 Y6.1569
G01 X40.0117 Y6.1343
G01 X40.1039 Y6.1206
G01 X40.1970 Y6.1160
G01 X40.2901 Y6.1206
G01 X40.3823 Y6.1343
G01 X40.4728 Y6.1569
G01 X40.5605 Y6.1883
G01 X40.6448 Y6.2282
G01 X40.7248 Y6.2761
G01 X40.7997 Y6.3316
G01 X40.8688 Y6.3942
G01 X40.9314 Y6.4633
G01 X40.9869 Y6.5382
G01 X41.0348 Y6.6182
G01 X41.0747 Y6.7025
G01 X41.1061 Y6.7902
G01 X41.1287 Y6.8807
G01 X41.1424 Y6.9729
G01 X41.1469 Y7.0685
G00 Z5.0000
G00 X32.9501 Y23.5299
G01 F60.00
G01 Z-0.0000
G01 F120.00
G01 X33.4687 Y23.5299
G01 X49.5081 Y7.4905
G01 X49.4793 Y7.4295
G01 X49.4479 Y7.3418
G01 X49.4253 Y7.2513
G01 X49.4119 Y7.1616
G01 X49.4071 Y7.0635
G01 X49.4116 Y6.9729
G01 X49.4250 Y6.8819
G01 X49.4487 Y6.7879
G01 X49.4793 Y6.7025
G01 X49.5192 Y6.6182
G01 X49.5671 Y6.5382
G01 X49.6211 Y6.4653
G01 X49.6861 Y6.3934
G01 X49.7543 Y6.3316
G01 X49.8292 Y6.2761
G01 X49.9092 Y6.2282
G01 X49.9935 Y6.1883
G01 X50.0812 Y6.1569
G01 X50.1717 Y6.1343
G01 X50.2639 Y6.1206
G01 X50.3570 Y6.1160
G01 X50.4501 Y6.1206
G01 X50.5423 Y6.1343
G01 X50.6328 Y6.1569
G01 X50.7205 Y6.1883
G01 X50.8048 Y6.2282
G01 X50.8848 Y6.2761
G01 X50.9597 Y6.3316
G01 X51.0296 Y6.3951
G01 X51.0914 Y6.4633
G01 X51.1469 Y6.5382
G01 X51.1948 Y6.6182
G01 X51.2347 Y6.7025
G01 X51.2661 Y6.7902
G01 X51.2887 Y6.8807
G01 X51.3024 Y6.9729
G01 X51.3070 Y7.0660
G01 X51.3024 Y7.1591
G01 X51.2887 Y7.2513
G01 X51.2661 Y7.3418
G01 X51.2347 Y7.4295
G01 X51.1948 Y7.5138
G01 X51.1469 Y7.5938
G01 X51.0914 Y7.6687
G01 X51.0288 Y7.7378
G01 X50.9577 Y7.8019
G01 X50.8848 Y7.8559
G01 X50.8048 Y7.9038
G01 X50.7205 Y7.9437
G01 X50.6351 Y7.9743
G01 X50.5411 Y7.9980
G01 X50.4501 Y8.0114
G01 X50.3595 Y8.0159
G01 X50.2614 Y8.0111
G01 X50.1717 Y7.9977
G01 X50.0812 Y7.9751
G01 X49.9935 Y7.9437
G01 X49.9325 Y7.9149
G01 X33.8052 Y24.0422
G01 X33.7853 Y24.0604
G01 X33.7577 Y24.0809
G01 X33.7345 Y24.0947
G01 X33.7079 Y24.1073
G01 X33.6801 Y24.1172
G01 X33.6539 Y24.1238
G01 X33.6212 Y24.1288
G01 X33.5930 Y24.1301
G01 X32.9501 Y24.1301
G01 X32.9452 Y24.1430
G01 X32.9109 Y24.2149
G01 X32.8712 Y24.2811
G01 X32.8237 Y24.3451
G01 X32.7684 Y24.4059
G01 X32.7111 Y24.4577
G01 X32.6471 Y24.5052
G01 X32.5788 Y24.5461
G01 X32.5090 Y24.5792
G01 X32.4317 Y24.6070
G01 X32.3520 Y24.6268
G01 X32.2756 Y24.6381
G01 X32.1972 Y24.6420
G01 X32.1140 Y24.6378
G01 X32.0376 Y24.6264
G01 X31.9603 Y24.6070
G01 X31.8853 Y24.5802
G01 X31.8154 Y24.5472
G01 X31.7449 Y24.5052
G01 X31.6809 Y24.4577
G01 X31.6236 Y24.4059
G01 X31.5683 Y24.3451
G01 X31.5208 Y24.2811
G01 X31.4811 Y24.2149
G01 X31.4458 Y24.1407
G01 X31.4190 Y24.0657
G01 X31.3996 Y23.9884
G01 X31.3879 Y23.9096
G01 X31.3840 Y23.8300
G01 X31.3879 Y23.7504
G01 X31.3996 Y23.6716
G01 X31.4190 Y23.5943
G01 X31.4458 Y23.5193
G01 X31.4799 Y23.4472
G01 X31.5208 Y23.3789
G01 X31.5683 Y23.3149
G01 X31.6218 Y23.2558
G01 X31.6809 Y23.2023
G01 X31.7449 Y23.1548
G01 X31.8132 Y23.1139
G01 X31.8853 Y23.0798
G01 X31.9603 Y23.0530
G01 X32.0376 Y23.0336
G01 X32.1164 Y23.0219
G01 X32.1960 Y23.0180
G01 X32.2756 Y23.0219
G01 X32.3544 Y23.0336
G01 X32.4317 Y23.0530
G01 X32.5067 Y23.0798
G01 X32.5788 Y23.1139
G01 X32.6471 Y23.1548
G01 X32.7111 Y23.2023
G01 X32.7702 Y23.2558
G01 X32.8237 Y23.3149
G01 X32.8712 Y23.3789
G01 X32.9121 Y23.4472
G01 X32.9452 Y23.5170
G01 X32.9501 Y23.5299
G00 Z5.0000
G00 X29.3950 Y30.4603
G01 F60.00
G01 Z-0.0000
G01 F120.00
G01 X32.2030 Y30.4603
G01 X32.2091 Y30.4607
G01 X32.2175 Y30.4624
G01 X32.2255 Y30.4656
G01 X32.2318 Y30.4694
G01 X32.2384 Y30.4749
G01 X32.2439 Y30.4815
G01 X32.2477 Y30.4878
G01 X32.2508 Y30.4958
G01 X32.2526 Y30.5042
G01 X32.2530 Y30.5103
G01 X32.2530 Y30.8517
G01 X32.4534 Y30.8517
G01 X32.4534 Y27.1393
G01 X32.4305 Y27.1474
G01 X32.3556 Y27.1661
G01 X32.2768 Y27.1780
G01 X32.1960 Y27.1820
G01 X32.1152 Y27.1780
G01 X32.0352 Y27.1659
G01 X31.9603 Y27.1470
G01 X31.8876 Y27.1211
G01 X31.8132 Y27.0861
G01 X31.7439 Y27.0445
G01 X31.6790 Y26.9961
G01 X31.6218 Y26.9442
G01 X31.5699 Y26.8870
G01 X31.5208 Y26.8211
G01 X31.4799 Y26.7528
G01 X31.4449 Y26.6784
G01 X31.4190 Y26.6057
G01 X31.4001 Y26.5308
G01 X31.3879 Y26.4496
G01 X31.3841 Y26.3675
G01 X31.3879 Y26.2904
G01 X31.3992 Y26.2140
G01 X31.4190 Y26.1343
G01 X31.4468 Y26.0570
G01 X31.4799 Y25.9872
G01 X31.5195 Y25.9210
G01 X31.5683 Y25.8549
G01 X31.6236 Y25.7941
G01 X31.6809 Y25.7423
G01 X31.7429 Y25.6963
G01 X31.8132 Y25.6539
G01 X31.8876 Y25.6189
G01 X31.9603 Y25.5930
G01 X32.0376 Y25.5736
G01 X32.1189 Y25.5617
G01 X32.1960 Y25.5580
G01 X32.2731 Y25.5617
G01 X32.3544 Y25.5736
G01 X32.4340 Y25.5937
G01 X32.5067 Y25.6198
G01 X32.5766 Y25.6528
G01 X32.6471 Y25.6948
G01 X32.7111 Y25.7423
G01 X32.7684 Y25.7941
G01 X32.8252 Y25.8568
G01 X32.8712 Y25.9189
G01 X32.9121 Y25.9872
G01 X32.9462 Y26.0593
G01 X32.9727 Y26.1331
G01 X32.9924 Y26.2116
G01 X33.0041 Y26.2904
G01 X33.0080 Y26.3700
G01 X33.0043 Y26.4471
G01 X32.9924 Y26.5284
G01 X32.9737 Y26.6033
G01 X32.9471 Y26.6784
G01 X32.9414 Y26.6910
G01 X32.9666 Y26.7162
G01 X32.9855 Y26.7371
G01 X33.0031 Y26.7608
G01 X33.0182 Y26.7861
G01 X33.0308 Y26.8127
G01 X33.0407 Y26.8404
G01 X33.0479 Y26.8690
G01 X33.0523 Y26.8993
G01 X33.0536 Y26.9275
G01 X33.0536 Y31.1518
G01 X33.0519 Y31.1837
G01 X33.0479 Y31.2104
G01 X33.0407 Y31.2389
G01 X33.0308 Y31.2667
G01 X33.0193 Y31.2911
G01 X33.0031 Y31.3185
G01 X32.9855 Y31.3422
G01 X32.9657 Y31.3640
G01 X32.9439 Y31.3838
G01 X32.9203 Y31.4013
G01 X32.8950 Y31.4165
G01 X32.8684 Y31.4291
G01 X32.8406 Y31.4390
G01 X32.8109 Y31.4464
G01 X32.7829 Y31.4505
G01 X32.7535 Y31.4519
G01 X32.2530 Y31.4519
G01 X32.2528 Y31.7977
G01 X32.2512 Y31.8061
G01 X32.2482 Y31.8142
G01 X32.2446 Y31.8206
G01 X32.2392 Y31.8273
G01 X32.2328 Y31.8330
G01 X32.2255 Y31.8375
G01 X32.2187 Y31.8403
G01 X32.2103 Y31.8422
G01 X32.2030 Y31.8428
G01 X29.3950 Y31.8428
G01 X29.3889 Y31.8424
G01 X29.3829 Y31.8413
G01 X29.3747 Y31.8385
G01 X29.3672 Y31.8344
G01 X29.3605 Y31.8290
G01 X29.3556 Y31.8236
G01 X29.3509 Y31.8164
G01 X29.3479 Y31.8096
G01 X29.3460 Y31.8025
G01 X29.3450 Y31.7940
G01 X29.3450 Y30.5103
G01 X29.3460 Y30.5005
G01 X29.3488 Y30.4912
G01 X29.3534 Y30.4825
G01 X29.3596 Y30.4749
G01 X29.3672 Y30.4687
G01 X29.3759 Y30.4641
G01 X29.3852 Y30.4613
G01 X29.3950 Y30.4603
G00 Z5.0000
G00 X22.9749 Y23.8325
G01 F60.00
G01 Z-0.0000
G01 F120.00
G01 X22.9711 Y23.9096
G01 X22.9594 Y23.9884
G01 X22.9400 Y24.0657
G01 X22.9132 Y24.1407
G01 X22.8791 Y24.2128
G01 X22.8382 Y24.2811
G01 X22.7907 Y24.3451
G01 X22.7372 Y24.4042
G01 X22.6781 Y24.4577
G01 X22.6141 Y24.5052
G01 X22.5458 Y24.5461
G01 X22.4737 Y24.5802
G01 X22.3987 Y24.6070
G01 X22.3214 Y24.6264
G01 X22.2426 Y24.6381
G01 X22.1630 Y24.6420
G01 X22.0834 Y24.6381
G01 X22.0046 Y24.6264
G01 X21.9273 Y24.6070
G01 X21.8523 Y24.5802
G01 X21.7802 Y24.5461
G01 X21.7119 Y24.5052
G01 X21.6479 Y24.4577
G01 X21.5888 Y24.4042
G01 X21.5353 Y24.3451
G01 X21.4878 Y24.2811
G01 X21.4469 Y24.2128
G01 X21.4128 Y24.1407
G01 X21.3860 Y24.0657
G01 X21.3666 Y23.9884
G01 X21.3549 Y23.9096
G01 X21.3510 Y23.8300
G01 X21.3549 Y23.7504
G01 X21.3666 Y23.6716
G01 X21.3860 Y23.5943
G01 X21.4128 Y23.5193
G01 X21.4469 Y23.4472
G01 X21.4878 Y23.3789
G01 X21.5353 Y23.3149
G01 X21.5888 Y23.2558
G01 X21.6479 Y23.2023
G01 X21.7119 Y23.1548
G01 X21.7802 Y23.1139
G01 X21.8523 Y23.0798
G01 X21.9273 Y23.0530
G01 X22.0046 Y23.0336
G01 X22.0834 Y23.0219
G01 X22.1630 Y23.0180
G01 X22.2426 Y23.0219
G01 X22.3214 Y23.0336
G01 X22.3987 Y23.0530
G01 X22.4737 Y23.0798
G01 X22.5458 Y23.1139
G01 X22.6141 Y23.1548
G01 X22.6781 Y23.2023
G01 X22.7372 Y23.2558
G01 X22.7907 Y23.3149
G01 X22.8382 Y23.3789
G01 X22.8791 Y23.4472
G01 X22.9132 Y23.5193
G01 X22.9400 Y23.5943
G01 X22.9594 Y23.6716
G01 X22.9711 Y23.7504
G01 X22.9749 Y23.8325
G00 Z5.0000
G00 X19.4890 Y30.4603
G01 F60.00
G01 Z-0.0000
G01 F120.00
G01 X22.2970 Y30.4603
G01 X22.3031 Y30.4607
G01 X22.3115 Y30.4624
G01 X22.3195 Y30.4656
G01 X22.3258 Y30.4694
G01 X22.3324 Y30.4749
G01 X22.3379 Y30.4815
G01 X22.3422 Y30.4889
G01 X22.3452 Y30.4970
G01 X22.3466 Y30.5042
G01 X22.3470 Y30.5103
G01 X22.3470 Y30.8517
G01 X22.5474 Y30.8517
G01 X22.5474 Y27.1788
G01 X22.4840 Y27.1154
G01 X22.4714 Y27.1211
G01 X22.3963 Y27.1477
G01 X22.3214 Y27.1664
G01 X22.2426 Y27.1781
G01 X22.1605 Y27.1819
G01 X22.0834 Y27.1781
G01 X22.0070 Y27.1668
G01 X21.9273 Y27.1470
G01 X21.8523 Y27.1202
G01 X21.7802 Y27.0861
G01 X21.7119 Y27.0452
G01 X21.6460 Y26.9961
G01 X21.5888 Y26.9442
G01 X21.5369 Y26.8870
G01 X21.4878 Y26.8211
G01 X21.4469 Y26.7528
G01 X21.4119 Y26.6784
G01 X21.3860 Y26.6057
G01 X21.3671 Y26.5308
G01 X21.3549 Y26.4496
G01 X21.3510 Y26.3688
G01 X21.3549 Y26.2904
G01 X21.3662 Y26.2140
G01 X21.3860 Y26.1343
G01 X21.4138 Y26.0570
G01 X21.4469 Y25.9872
G01 X21.4865 Y25.9210
G01 X21.5353 Y25.8549
G01 X21.5906 Y25.7941
G01 X21.6479 Y25.7423
G01 X21.7099 Y25.6963
G01 X21.7802 Y25.6539
G01 X21.8546 Y25.6189
G01 X21.9273 Y25.5930
G01 X22.0046 Y25.5736
G01 X22.0859 Y25.5617
G01 X22.1630 Y25.5580
G01 X22.2401 Y25.5617
G01 X22.3214 Y25.5736
G01 X22.4010 Y25.5937
G01 X22.4737 Y25.6198
G01 X22.5436 Y25.6528
G01 X22.6141 Y25.6948
G01 X22.6781 Y25.7423
G01 X22.7354 Y25.7941
G01 X22.7907 Y25.8549
G01 X22.8382 Y25.9189
G01 X22.8779 Y25.9851
G01 X22.9136 Y26.0604
G01 X22.9400 Y26.1343
G01 X22.9594 Y26.2116
G01 X22.9711 Y26.2904
G01 X22.9750 Y26.3700
G01 X22.9711 Y26.4496
G01 X22.9594 Y26.5284
G01 X22.9400 Y26.6057
G01 X22.9141 Y26.6784
G01 X22.9084 Y26.6910
G01 X23.0606 Y26.8432
G01 X23.0795 Y26.8641
G01 X23.0964 Y26.8868
G01 X23.1122 Y26.9131
G01 X23.1257 Y26.9420
G01 X23.1347 Y26.9674
G01 X23.1413 Y26.9936
G01 X23.1463 Y27.0263
G01 X23.1476 Y27.0545
G01 X23.1476 Y31.1518
G01 X23.1459 Y31.1837
G01 X23.1419 Y31.2104
G01 X23.1347 Y31.2389
G01 X23.1248 Y31.2667
G01 X23.1133 Y31.2911
G01 X23.0971 Y31.3185
G01 X23.0795 Y31.3422
G01 X23.0597 Y31.3640
G01 X23.0379 Y31.3838
G01 X23.0143 Y31.4013
G01 X22.9890 Y31.4165
G01 X22.9624 Y31.4291
G01 X22.9346 Y31.4390
G01 X22.9049 Y31.4464
G01 X22.8769 Y31.4505
G01 X22.8475 Y31.4519
G01 X22.3470 Y31.4519
G01 X22.3468 Y31.7977
G01 X22.3452 Y31.8061
G01 X22.3422 Y31.8142
G01 X22.3379 Y31.8216
G01 X22.3332 Y31.8273
G01 X22.3268 Y31.8330
G01 X22.3206 Y31.8369
G01 X22.3127 Y31.8403
G01 X22.3043 Y31.8422
G01 X22.2970 Y31.8428
G01 X19.4890 Y31.8428
G01 X19.4829 Y31.8424
G01 X19.4769 Y31.8413
G01 X19.4687 Y31.8385
G01 X19.4612 Y31.8344
G01 X19.4545 Y31.8290
G01 X19.4496 Y31.8236
G01 X19.4449 Y31.8164
G01 X19.4419 Y31.8096
G01 X19.4400 Y31.8025
G01 X19.4390 Y31.7940
G01 X19.4390 Y30.5103
G01 X19.4400 Y30.5005
G01 X19.4428 Y30.4912
G01 X19.4474 Y30.4825
G01 X19.4536 Y30.4749
G01 X19.4612 Y30.4687
G01 X19.4699 Y30.4641
G01 X19.4792 Y30.4613
G01 X19.4890 Y30.4603
G00 Z5.0000
G00 X10.7643 Y31.1518
G01 F60.00
G01 Z-0.0000
G01 F120.00
G01 X10.7643 Y27.8165
G01 X10.7658 Y27.7871
G01 X10.7701 Y27.7580
G01 X10.7773 Y27.7294
G01 X10.7863 Y27.7040
G01 X10.7998 Y27.6751
G01 X10.8149 Y27.6498
G01 X10.8325 Y27.6261
G01 X10.8514 Y27.6052
G01 X11.7656 Y26.6910
G01 X11.7599 Y26.6784
G01 X11.7333 Y26.6033
G01 X11.7146 Y26.5284
G01 X11.7029 Y26.4496
G01 X11.6990 Y26.3700
G01 X11.7027 Y26.2929
G01 X11.7146 Y26.2116
G01 X11.7347 Y26.1320
G01 X11.7608 Y26.0593
G01 X11.7949 Y25.9872
G01 X11.8373 Y25.9169
G01 X11.8833 Y25.8549
G01 X11.9360 Y25.7967
G01 X11.9978 Y25.7408
G01 X12.0599 Y25.6948
G01 X12.1282 Y25.6539
G01 X12.2026 Y25.6189
G01 X12.2753 Y25.5930
G01 X12.3526 Y25.5736
G01 X12.4339 Y25.5617
G01 X12.5110 Y25.5580
G01 X12.5906 Y25.5619
G01 X12.6718 Y25.5741
G01 X12.7467 Y25.5930
G01 X12.8194 Y25.6189
G01 X12.8938 Y25.6539
G01 X12.9621 Y25.6948
G01 X13.0261 Y25.7423
G01 X13.0869 Y25.7976
G01 X13.1402 Y25.8568
G01 X13.1862 Y25.9189
G01 X13.2259 Y25.9851
G01 X13.2612 Y26.0593
G01 X13.2880 Y26.1343
G01 X13.3074 Y26.2116
G01 X13.3191 Y26.2904
G01 X13.3230 Y26.3700
G01 X13.3188 Y26.4520
G01 X13.3069 Y26.5308
G01 X13.2880 Y26.6057
G01 X13.2621 Y26.6784
G01 X13.2271 Y26.7528
G01 X13.1868 Y26.8201
G01 X13.1387 Y26.8851
G01 X13.0869 Y26.9424
G01 X13.0242 Y26.9992
G01 X12.9621 Y27.0452
G01 X12.8938 Y27.0861
G01 X12.8217 Y27.1202
G01 X12.7467 Y27.1470
G01 X12.6694 Y27.1664
G01 X12.5906 Y27.1781
G01 X12.5110 Y27.1820
G01 X12.4339 Y27.1783
G01 X12.3526 Y27.1664
G01 X12.2777 Y27.1477
G01 X12.2026 Y27.1211
G01 X12.1900 Y27.1154
G01 X11.3646 Y27.9408
G01 X11.3646 Y30.8517
G01 X11.5650 Y30.8517
G01 X11.5650 Y30.5103
G01 X11.5654 Y30.5042
G01 X11.5672 Y30.4958
G01 X11.5698 Y30.4889
G01 X11.5741 Y30.4815
G01 X11.5796 Y30.4749
G01 X11.5862 Y30.4694
G01 X11.5925 Y30.4656
G01 X11.6005 Y30.4624
G01 X11.6089 Y30.4607
G01 X11.6150 Y30.4603
G01 X14.4230 Y30.4603
G01 X14.4303 Y30.4608
G01 X14.4375 Y30.4624
G01 X14.4455 Y30.4656
G01 X14.4518 Y30.4694
G01 X14.4584 Y30.4749
G01 X14.4632 Y30.4805
G01 X14.4671 Y30.4867
G01 X14.4701 Y30.4934
G01 X14.4720 Y30.5005
G01 X14.4730 Y30.5091
G01 X14.4730 Y31.7928
G01 X14.4723 Y31.8013
G01 X14.4701 Y31.8096
G01 X14.4665 Y31.8174
G01 X14.4624 Y31.8236
G01 X14.4575 Y31.8290
G01 X14.4518 Y31.8337
G01 X14.4455 Y31.8375
G01 X14.4375 Y31.8406
G01 X14.4303 Y31.8422
G01 X14.4230 Y31.8428
G01 X11.6150 Y31.8428
G01 X11.6065 Y31.8421
G01 X11.5982 Y31.8399
G01 X11.5914 Y31.8369
G01 X11.5852 Y31.8330
G01 X11.5788 Y31.8273
G01 X11.5741 Y31.8216
G01 X11.5698 Y31.8142
G01 X11.5668 Y31.8061
G01 X11.5652 Y31.7977
G01 X11.5650 Y31.4519
G01 X11.0632 Y31.4519
G01 X11.0351 Y31.4505
G01 X11.0059 Y31.4462
G01 X10.9773 Y31.4390
G01 X10.9508 Y31.4295
G01 X10.9209 Y31.4153
G01 X10.8977 Y31.4013
G01 X10.8741 Y31.3838
G01 X10.8522 Y31.3640
G01 X10.8341 Y31.3441
G01 X10.8149 Y31.3185
G01 X10.7987 Y31.2911
G01 X10.7872 Y31.2667
G01 X10.7773 Y31.2389
G01 X10.7701 Y31.2104
G01 X10.7661 Y31.1837
G01 X10.7643 Y31.1518
G00 Z5.0000
G00 X1.0740 Y30.3333
G01 F60.00
G01 Z-0.0000
G01 F120.00
G01 X3.8820 Y30.3333
G01 X3.8881 Y30.3337
G01 X3.8953 Y30.3351
G01 X3.9034 Y30.3381
G01 X3.9108 Y30.3424
G01 X3.9174 Y30.3479
G01 X3.9229 Y30.3545
G01 X3.9272 Y30.3619
G01 X3.9302 Y30.3700
G01 X3.9316 Y30.3772
G01 X3.9320 Y30.3833
G01 X3.9320 Y30.7247
G01 X4.1324 Y30.7247
G01 X4.1324 Y28.7028
G01 X2.7990 Y27.3694
G01 X2.7864 Y27.3751
G01 X2.7137 Y27.4010
G01 X2.6364 Y27.4204
G01 X2.5576 Y27.4321
G01 X2.4780 Y27.4360
G01 X2.3984 Y27.4321
G01 X2.3196 Y27.4204
G01 X2.2423 Y27.4010
G01 X2.1650 Y27.3732
G01 X2.0952 Y27.3401
G01 X2.0249 Y27.2977
G01 X1.9629 Y27.2517
G01 X1.9056 Y27.1999
G01 X1.8519 Y27.1410
G01 X1.8028 Y27.0751
G01 X1.7619 Y27.0068
G01 X1.7278 Y26.9347
G01 X1.7006 Y26.8585
G01 X1.6816 Y26.7824
G01 X1.6702 Y26.7060
G01 X1.6660 Y26.6240
G01 X1.6702 Y26.5420
G01 X1.6816 Y26.4656
G01 X1.7003 Y26.3907
G01 X1.7288 Y26.3110
G01 X1.7619 Y26.2412
G01 X1.8015 Y26.1750
G01 X1.8503 Y26.1089
G01 X1.9056 Y26.0481
G01 X1.9629 Y25.9963
G01 X2.0249 Y25.9503
G01 X2.0952 Y25.9079
G01 X2.1673 Y25.8738
G01 X2.2400 Y25.8477
G01 X2.3196 Y25.8276
G01 X2.4009 Y25.8157
G01 X2.4780 Y25.8120
G01 X2.5576 Y25.8159
G01 X2.6388 Y25.8281
G01 X2.7137 Y25.8470
G01 X2.7876 Y25.8734
G01 X2.8608 Y25.9079
G01 X2.9291 Y25.9488
G01 X2.9931 Y25.9963
G01 X3.0522 Y26.0498
G01 X3.1057 Y26.1089
G01 X3.1532 Y26.1729
G01 X3.1941 Y26.2412
G01 X3.2282 Y26.3133
G01 X3.2550 Y26.3883
G01 X3.2744 Y26.4656
G01 X3.2861 Y26.5444
G01 X3.2900 Y26.6240
G01 X3.2861 Y26.7036
G01 X3.2744 Y26.7824
G01 X3.2550 Y26.8597
G01 X3.2291 Y26.9324
G01 X3.2234 Y26.9450
G01 X4.6448 Y28.3663
G01 X4.6645 Y28.3881
G01 X4.6821 Y28.4118
G01 X4.6972 Y28.4371
G01 X4.7107 Y28.4660
G01 X4.7197 Y28.4914
G01 X4.7269 Y28.5200
G01 X4.7312 Y28.5491
G01 X4.7327 Y28.5785
G01 X4.7327 Y31.0248
G01 X4.7312 Y31.0542
G01 X4.7269 Y31.0834
G01 X4.7197 Y31.1119
G01 X4.7103 Y31.1385
G01 X4.6972 Y31.1663
G01 X4.6807 Y31.1935
G01 X4.6645 Y31.2152
G01 X4.6464 Y31.2352
G01 X4.6229 Y31.2568
G01 X4.5993 Y31.2743
G01 X4.5718 Y31.2906
G01 X4.5451 Y31.3030
G01 X4.5197 Y31.3120
G01 X4.4935 Y31.3186
G01 X4.4619 Y31.3235
G01 X4.4325 Y31.3249
G01 X3.9320 Y31.3249
G01 X3.9318 Y31.6707
G01 X3.9302 Y31.6791
G01 X3.9272 Y31.6872
G01 X3.9236 Y31.6936
G01 X3.9182 Y31.7003
G01 X3.9118 Y31.7060
G01 X3.9045 Y31.7105
G01 X3.8977 Y31.7133
G01 X3.8893 Y31.7152
G01 X3.8820 Y31.7158
G01 X1.0740 Y31.7158
G01 X1.0679 Y31.7154
G01 X1.0630 Y31.7146
G01 X1.0560 Y31.7124
G01 X1.0483 Y31.7087
G01 X1.0413 Y31.7037
G01 X1.0353 Y31.6975
G01 X1.0305 Y31.6904
G01 X1.0274 Y31.6838
G01 X1.0250 Y31.6755
G01 X1.0240 Y31.6670
G01 X1.0240 Y30.3833
G01 X1.0250 Y30.3735
G01 X1.0278 Y30.3642
G01 X1.0324 Y30.3555
G01 X1.0386 Y30.3479
G01 X1.0462 Y30.3417
G01 X1.0549 Y30.3371
G01 X1.0642 Y30.3343
G01 X1.0740 Y30.3333
G00 Z5.0000
G00 X1.0740 Y33.2159
G01 F60.00
G01 Z-0.0000
G01 F120.00
G01 X3.8820 Y33.2159
G01 X3.8881 Y33.2163
G01 X3.8965 Y33.2181
G01 X3.9045 Y33.2212
G01 X3.9118 Y33.2257
G01 X3.9174 Y33.2305
G01 X3.9229 Y33.2371
G01 X3.9272 Y33.2445
G01 X3.9302 Y33.2526
G01 X3.9316 Y33.2598
G01 X3.9320 Y33.2659
G01 X3.9320 Y33.6071
G01 X4.3082 Y33.6071
G01 X5.2259 Y32.6894
G01 X5.2259 Y8.0934
G01 X5.1625 Y8.0707
G01 X5.0782 Y8.0308
G01 X4.9982 Y7.9829
G01 X4.9253 Y7.9289
G01 X4.8526 Y7.8630
G01 X4.7916 Y7.7957
G01 X4.7368 Y7.7218
G01 X4.6871 Y7.6386
G01 X4.6483 Y7.5565
G01 X4.6169 Y7.4688
G01 X4.5938 Y7.3759
G01 X4.5806 Y7.2861
G01 X4.5760 Y7.1930
G01 X4.5809 Y7.0974
G01 X4.5943 Y7.0077
G01 X4.6169 Y6.9172
G01 X4.6483 Y6.8295
G01 X4.6871 Y6.7474
G01 X4.7368 Y6.6642
G01 X4.7916 Y6.5903
G01 X4.8526 Y6.5230
G01 X4.9253 Y6.4571
G01 X4.9982 Y6.4031
G01 X5.0782 Y6.3552
G01 X5.1625 Y6.3153
G01 X5.2259 Y6.2926
G01 X5.2259 Y3.0134
G01 X5.1625 Y2.9907
G01 X5.0782 Y2.9508
G01 X4.9982 Y2.9029
G01 X4.9253 Y2.8489
G01 X4.8526 Y2.7830
G01 X4.7916 Y2.7157
G01 X4.7368 Y2.6418
G01 X4.6871 Y2.5586
G01 X4.6483 Y2.4765
G01 X4.6169 Y2.3888
G01 X4.5943 Y2.2983
G01 X4.5809 Y2.2086
G01 X4.5760 Y2.1118
G01 X4.5806 Y2.0199
G01 X4.5943 Y1.9277
G01 X4.6169 Y1.8372
G01 X4.6493 Y1.7472
G01 X4.6894 Y1.6630
G01 X4.7361 Y1.5852
G01 X4.7901 Y1.5123
G01 X4.8542 Y1.4412
G01 X4.9215 Y1.3802
G01 X4.9982 Y1.3231
G01 X5.0782 Y1.2752
G01 X5.1625 Y1.2353
G01 X5.2502 Y1.2039
G01 X5.3407 Y1.1813
G01 X5.4329 Y1.1676
G01 X5.5260 Y1.1630
G01 X5.6216 Y1.1679
G01 X5.7113 Y1.1813
G01 X5.8018 Y1.2039
G01 X5.8895 Y1.2353
G01 X5.9738 Y1.2752
G01 X6.0538 Y1.3231
G01 X6.1287 Y1.3786
G01 X6.1978 Y1.4412
G01 X6.2588 Y1.5085
G01 X6.3159 Y1.5852
G01 X6.3626 Y1.6630
G01 X6.4046 Y1.7517
G01 X6.4351 Y1.8372
G01 X6.4577 Y1.9277
G01 X6.4714 Y2.0199
G01 X6.4760 Y2.1130
G01 X6.4711 Y2.2086
G01 X6.4577 Y2.2983
G01 X6.4351 Y2.3888
G01 X6.4037 Y2.4765
G01 X6.3649 Y2.5586
G01 X6.3152 Y2.6418
G01 X6.2604 Y2.7157
G01 X6.1994 Y2.7830
G01 X6.1267 Y2.8489
G01 X6.0538 Y2.9029
G01 X5.9738 Y2.9508
G01 X5.8895 Y2.9907
G01 X5.8261 Y3.0134
G01 X5.8261 Y6.2926
G01 X5.8895 Y6.3153
G01 X5.9738 Y6.3552
G01 X6.0538 Y6.4031
G01 X6.1267 Y6.4571
G01 X6.1994 Y6.5230
G01 X6.2604 Y6.5903
G01 X6.3152 Y6.6642
G01 X6.3649 Y6.7474
G01 X6.4037 Y6.8295
G01 X6.4351 Y6.9172
G01 X6.4582 Y7.0101
G01 X6.4714 Y7.0999
G01 X6.4760 Y7.1930
G01 X6.4711 Y7.2886
G01 X6.4577 Y7.3783
G01 X6.4351 Y7.4688
G01 X6.4037 Y7.5565
G01 X6.3649 Y7.6386
G01 X6.3152 Y7.7218
G01 X6.2604 Y7.7957
G01 X6.1994 Y7.8630
G01 X6.1267 Y7.9289
G01 X6.0538 Y7.9829
G01 X5.9738 Y8.0308
G01 X5.8895 Y8.0707
G01 X5.8261 Y8.0934
G01 X5.8261 Y32.8137
G01 X5.8249 Y32.8407
G01 X5.8204 Y32.8723
G01 X5.8139 Y32.8985
G01 X5.8023 Y32.9308
G01 X5.7907 Y32.9552
G01 X5.7755 Y32.9805
G01 X5.7580 Y33.0041
G01 X5.7399 Y33.0242
G01 X4.7327 Y34.0315
G01 X4.7326 Y35.1002
G01 X4.7312 Y35.1284
G01 X4.7269 Y35.1575
G01 X4.7197 Y35.1861
G01 X4.7093 Y35.2149
G01 X4.6972 Y35.2404
G01 X4.6821 Y35.2657
G01 X4.6645 Y35.2894
G01 X4.6456 Y35.3103
G01 X3.7705 Y36.1854
G01 X3.7705 Y84.1976
G01 X5.1563 Y85.5833
G01 X6.4978 Y85.5833
G01 X6.5260 Y85.5847
G01 X6.5564 Y85.5891
G01 X6.5849 Y85.5963
G01 X6.6127 Y85.6062
G01 X6.6414 Y85.6200
G01 X6.6665 Y85.6353
G01 X6.6882 Y85.6515
G01 X6.7082 Y85.6695
G01 X6.7298 Y85.6931
G01 X6.7473 Y85.7167
G01 X6.7636 Y85.7442
G01 X6.7751 Y85.7686
G01 X6.7842 Y85.7940
G01 X6.7922 Y85.8249
G01 X6.7966 Y85.8553
G01 X6.7979 Y85.8835
G01 X6.7979 Y86.3840
G01 X7.1390 Y86.3840
G01 X7.1451 Y86.3844
G01 X7.1535 Y86.3862
G01 X7.1615 Y86.3893
G01 X7.1678 Y86.3931
G01 X7.1743 Y86.3986
G01 X7.1792 Y86.4042
G01 X7.1837 Y86.4115
G01 X7.1868 Y86.4195
G01 X7.1886 Y86.4279
G01 X7.1890 Y86.4340
G01 X7.1890 Y89.2432
G01 X7.1880 Y89.2518
G01 X7.1852 Y89.2611
G01 X7.1812 Y89.2687
G01 X7.1752 Y89.2765
G01 X7.1688 Y89.2822
G01 X7.1604 Y89.2872
G01 X7.1523 Y89.2902
G01 X7.1439 Y89.2918
G01 X5.8553 Y89.2920
G01 X5.8467 Y89.2910
G01 X5.8396 Y89.2891
G01 X5.8329 Y89.2861
G01 X5.8257 Y89.2814
G01 X5.8203 Y89.2765
G01 X5.8156 Y89.2708
G01 X5.8118 Y89.2645
G01 X5.8086 Y89.2565
G01 X5.8070 Y89.2493
G01 X5.8065 Y89.2420
G01 X5.8065 Y86.4340
G01 X5.8069 Y86.4279
G01 X5.8086 Y86.4195
G01 X5.8118 Y86.4115
G01 X5.8163 Y86.4042
G01 X5.8211 Y86.3986
G01 X5.8267 Y86.3938
G01 X5.8340 Y86.3893
G01 X5.8420 Y86.3862
G01 X5.8504 Y86.3844
G01 X5.8565 Y86.3840
G01 X6.1977 Y86.3840
G01 X6.1977 Y86.1836
G01 X5.0295 Y86.1835
G01 X5.0025 Y86.1821
G01 X4.9758 Y86.1782
G01 X4.9448 Y86.1707
G01 X4.9149 Y86.1597
G01 X4.8905 Y86.1481
G01 X4.8673 Y86.1343
G01 X4.8416 Y86.1155
G01 X4.8197 Y86.0957
G01 X3.2573 Y84.5332
G01 X3.2384 Y84.5123
G01 X3.2208 Y84.4886
G01 X3.2057 Y84.4633
G01 X3.1941 Y84.4390
G01 X3.1825 Y84.4066
G01 X3.1760 Y84.3804
G01 X3.1717 Y84.3513
G01 X3.1702 Y84.3219
G01 X3.1703 Y36.0599
G01 X3.1717 Y36.0317
G01 X3.1760 Y36.0026
G01 X3.1832 Y35.9740
G01 X3.1922 Y35.9485
G01 X3.2069 Y35.9175
G01 X3.2208 Y35.8944
G01 X3.2400 Y35.8689
G01 X3.2582 Y35.8489
G01 X4.1324 Y34.9746
G01 X4.1324 Y34.2073
G01 X3.9320 Y34.2073
G01 X3.9320 Y34.5484
G01 X3.9316 Y34.5545
G01 X3.9302 Y34.5617
G01 X3.9272 Y34.5698
G01 X3.9229 Y34.5772
G01 X3.9174 Y34.5838
G01 X3.9118 Y34.5886
G01 X3.9045 Y34.5931
G01 X3.8965 Y34.5962
G01 X3.8881 Y34.5980
G01 X3.8820 Y34.5984
G01 X1.0740 Y34.5984
G01 X1.0655 Y34.5977
G01 X1.0583 Y34.5959
G01 X1.0515 Y34.5931
G01 X1.0452 Y34.5893
G01 X1.0395 Y34.5846
G01 X1.0338 Y34.5782
G01 X1.0299 Y34.5720
G01 X1.0269 Y34.5652
G01 X1.0247 Y34.5569
G01 X1.0240 Y34.5496
G01 X1.0240 Y33.2659
G01 X1.0250 Y33.2561
G01 X1.0278 Y33.2468
G01 X1.0324 Y33.2381
G01 X1.0386 Y33.2305
G01 X1.0462 Y33.2243
G01 X1.0549 Y33.2197
G01 X1.0642 Y33.2169
G01 X1.0740 Y33.2159
G00 Z5.0000
G00 X3.2899 Y24.0865
G01 F60.00
G01 Z-0.0000
G01 F120.00
G01 X3.2861 Y24.1636
G01 X3.2744 Y24.2424
G01 X3.2550 Y24.3197
G01 X3.2282 Y24.3947
G01 X3.1941 Y24.4668
G01 X3.1532 Y24.5351
G01 X3.1057 Y24.5991
G01 X3.0522 Y24.6582
G01 X2.9931 Y24.7117
G01 X2.9291 Y24.7592
G01 X2.8608 Y24.8001
G01 X2.7887 Y24.8342
G01 X2.7137 Y24.8610
G01 X2.6364 Y24.8804
G01 X2.5576 Y24.8921
G01 X2.4780 Y24.8960
G01 X2.3984 Y24.8921
G01 X2.3196 Y24.8804
G01 X2.2423 Y24.8610
G01 X2.1673 Y24.8342
G01 X2.0952 Y24.8001
G01 X2.0269 Y24.7592
G01 X1.9629 Y24.7117
G01 X1.9038 Y24.6582
G01 X1.8503 Y24.5991
G01 X1.8028 Y24.5351
G01 X1.7619 Y24.4668
G01 X1.7278 Y24.3947
G01 X1.7010 Y24.3197
G01 X1.6816 Y24.2424
G01 X1.6699 Y24.1636
G01 X1.6660 Y24.0840
G01 X1.6699 Y24.0044
G01 X1.6816 Y23.9256
G01 X1.7010 Y23.8483
G01 X1.7278 Y23.7733
G01 X1.7619 Y23.7012
G01 X1.8028 Y23.6329
G01 X1.8503 Y23.5689
G01 X1.9038 Y23.5098
G01 X1.9629 Y23.4563
G01 X2.0269 Y23.4088
G01 X2.0952 Y23.3679
G01 X2.1673 Y23.3338
G01 X2.2423 Y23.3070
G01 X2.3196 Y23.2876
G01 X2.3984 Y23.2759
G01 X2.4780 Y23.2720
G01 X2.5576 Y23.2759
G01 X2.6364 Y23.2876
G01 X2.7137 Y23.3070
G01 X2.7887 Y23.3338
G01 X2.8608 Y23.3679
G01 X2.9291 Y23.4088
G01 X2.9931 Y23.4563
G01 X3.0522 Y23.5098
G01 X3.1057 Y23.5689
G01 X3.1532 Y23.6329
G01 X3.1941 Y23.7012
G01 X3.2282 Y23.7733
G01 X3.2550 Y23.8483
G01 X3.2744 Y23.9256
G01 X3.2861 Y24.0044
G01 X3.2899 Y24.0865
G00 Z5.0000
G00 X5.8565 Y55.9040
G01 F60.00
G01 Z-0.0000
G01 F120.00
G01 X7.1390 Y55.9040
G01 X7.1451 Y55.9044
G01 X7.1511 Y55.9055
G01 X7.1593 Y55.9083
G01 X7.1657 Y55.9118
G01 X7.1716 Y55.9161
G01 X7.1769 Y55.9213
G01 X7.1812 Y55.9273
G01 X7.1847 Y55.9337
G01 X7.1872 Y55.9407
G01 X7.1886 Y55.9479
G01 X7.1890 Y55.9540
G01 X7.1890 Y56.2424
G01 X7.4189 Y56.0124
G01 X7.4189 Y53.4063
G01 X7.4204 Y53.3781
G01 X7.4247 Y53.3490
G01 X7.4318 Y53.3204
G01 X7.4409 Y53.2950
G01 X7.4556 Y53.2639
G01 X7.4695 Y53.2408
G01 X7.4886 Y53.2153
G01 X7.5068 Y53.1953
G01 X15.5564 Y45.1457
G01 X15.5774 Y45.1268
G01 X15.5990 Y45.1106
G01 X15.6285 Y45.0930
G01 X15.6529 Y45.0815
G01 X15.6807 Y45.0716
G01 X15.7092 Y45.0644
G01 X15.7359 Y45.0604
G01 X15.7678 Y45.0587
G01 X16.1586 Y45.0587
G01 X26.7922 Y34.4250
G01 X26.7922 Y21.2637
G01 X13.5705 Y8.0419
G01 X13.5095 Y8.0707
G01 X13.4218 Y8.1021
G01 X13.3313 Y8.1247
G01 X13.2391 Y8.1384
G01 X13.1460 Y8.1430
G01 X13.0529 Y8.1384
G01 X12.9607 Y8.1247
G01 X12.8714 Y8.1024
G01 X12.7825 Y8.0707
G01 X12.7004 Y8.0319
G01 X12.6162 Y7.9815
G01 X12.5433 Y7.9274
G01 X12.4742 Y7.8648
G01 X12.4116 Y7.7957
G01 X12.3561 Y7.7208
G01 X12.3082 Y7.6408
G01 X12.2674 Y7.5543
G01 X12.2369 Y7.4688
G01 X12.2148 Y7.3807
G01 X12.2009 Y7.2886
G01 X12.1960 Y7.1930
G01 X12.2006 Y7.0999
G01 X12.2143 Y7.0077
G01 X12.2373 Y6.9161
G01 X12.2693 Y6.8272
G01 X12.3082 Y6.7452
G01 X12.3548 Y6.6673
G01 X12.4116 Y6.5903
G01 X12.4742 Y6.5212
G01 X12.5433 Y6.4586
G01 X12.6203 Y6.4018
G01 X12.7004 Y6.3541
G01 X12.7825 Y6.3153
G01 X12.8459 Y6.2926
G01 X12.8459 Y3.0134
G01 X12.7825 Y2.9907
G01 X12.6982 Y2.9508
G01 X12.6182 Y2.9029
G01 X12.5443 Y2.8481
G01 X12.4742 Y2.7848
G01 X12.4132 Y2.7175
G01 X12.3554 Y2.6398
G01 X12.3082 Y2.5608
G01 X12.2683 Y2.4765
G01 X12.2369 Y2.3888
G01 X12.2148 Y2.3007
G01 X12.2004 Y2.2037
G01 X12.1960 Y2.1130
G01 X12.2007 Y2.0187
G01 X12.2143 Y1.9277
G01 X12.2369 Y1.8372
G01 X12.2683 Y1.7495
G01 X12.3082 Y1.6652
G01 X12.3561 Y1.5852
G01 X12.4116 Y1.5103
G01 X12.4742 Y1.4412
G01 X12.5433 Y1.3786
G01 X12.6182 Y1.3231
G01 X12.6982 Y1.2752
G01 X12.7825 Y1.2353
G01 X12.8702 Y1.2039
G01 X12.9607 Y1.1813
G01 X13.0529 Y1.1676
G01 X13.1460 Y1.1630
G01 X13.2403 Y1.1677
G01 X13.3313 Y1.1813
G01 X13.4218 Y1.2039
G01 X13.5095 Y1.2353
G01 X13.5916 Y1.2741
G01 X13.6758 Y1.3245
G01 X13.7487 Y1.3786
G01 X13.8178 Y1.4412
G01 X13.8804 Y1.5103
G01 X13.9345 Y1.5832
G01 X13.9849 Y1.6674
G01 X14.0237 Y1.7495
G01 X14.0551 Y1.8372
G01 X14.0777 Y1.9277
G01 X14.0913 Y2.0187
G01 X14.0960 Y2.1130
G01 X14.0916 Y2.2037
G01 X14.0772 Y2.3007
G01 X14.0551 Y2.3888
G01 X14.0237 Y2.4765
G01 X13.9838 Y2.5608
G01 X13.9366 Y2.6398
G01 X13.8804 Y2.7157
G01 X13.8194 Y2.7830
G01 X13.7477 Y2.8481
G01 X13.6738 Y2.9029
G01 X13.5938 Y2.9508
G01 X13.5095 Y2.9907
G01 X13.4461 Y3.0134
G01 X13.4461 Y6.2926
G01 X13.5095 Y6.3153
G01 X13.5916 Y6.3541
G01 X13.6717 Y6.4018
G01 X13.7487 Y6.4586
G01 X13.8169 Y6.5204
G01 X13.8804 Y6.5903
G01 X13.9359 Y6.6652
G01 X13.9838 Y6.7452
G01 X14.0237 Y6.8295
G01 X14.0551 Y6.9172
G01 X14.0777 Y7.0077
G01 X14.0914 Y7.0999
G01 X14.0960 Y7.1942
G01 X14.0914 Y7.2861
G01 X14.0772 Y7.3807
G01 X14.0543 Y7.4711
G01 X14.0237 Y7.5565
G01 X13.9949 Y7.6175
G01 X27.3046 Y20.9271
G01 X27.3244 Y20.9490
G01 X27.3419 Y20.9726
G01 X27.3571 Y20.9979
G01 X27.3692 Y21.0234
G01 X27.3796 Y21.0522
G01 X27.3867 Y21.0808
G01 X27.3910 Y21.1100
G01 X27.3925 Y21.1394
G01 X27.3925 Y33.7341
G01 X29.3450 Y33.7341
G01 X29.3450 Y33.3929
G01 X29.3454 Y33.3868
G01 X29.3472 Y33.3784
G01 X29.3503 Y33.3704
G01 X29.3548 Y33.3631
G01 X29.3605 Y33.3567
G01 X29.3672 Y33.3513
G01 X29.3747 Y33.3472
G01 X29.3829 Y33.3444
G01 X29.3913 Y33.3430
G01 X32.2030 Y33.3429
G01 X32.2128 Y33.3439
G01 X32.2198 Y33.3458
G01 X32.2276 Y33.3494
G01 X32.2347 Y33.3542
G01 X32.2409 Y33.3602
G01 X32.2459 Y33.3672
G01 X32.2496 Y33.3749
G01 X32.2520 Y33.3831
G01 X32.2530 Y33.3917
G01 X32.2530 Y34.6754
G01 X32.2526 Y34.6815
G01 X32.2505 Y34.6911
G01 X32.2471 Y34.6990
G01 X32.2424 Y34.7062
G01 X32.2366 Y34.7124
G01 X32.2297 Y34.7176
G01 X32.2210 Y34.7220
G01 X32.2128 Y34.7244
G01 X32.2042 Y34.7254
G01 X29.3913 Y34.7253
G01 X29.3829 Y34.7239
G01 X29.3747 Y34.7211
G01 X29.3672 Y34.7170
G01 X29.3605 Y34.7116
G01 X29.3548 Y34.7052
G01 X29.3503 Y34.6979
G01 X29.3472 Y34.6899
G01 X29.3454 Y34.6815
G01 X29.3450 Y34.6754
G01 X29.3450 Y34.3343
G01 X27.3925 Y34.3343
G01 X27.3925 Y34.5505
G01 X27.3910 Y34.5787
G01 X27.3867 Y34.6079
G01 X27.3788 Y34.6388
G01 X27.3696 Y34.6642
G01 X27.3571 Y34.6908
G01 X27.3405 Y34.7180
G01 X27.3244 Y34.7397
G01 X27.3054 Y34.7606
G01 X16.4951 Y45.5710
G01 X16.4733 Y45.5908
G01 X16.4516 Y45.6069
G01 X16.4222 Y45.6246
G01 X16.3978 Y45.6361
G01 X16.3700 Y45.6460
G01 X16.3415 Y45.6531
G01 X16.3148 Y45.6572
G01 X16.2829 Y45.6589
G01 X15.8921 Y45.6589
G01 X8.0192 Y53.5318
G01 X8.0192 Y56.1368
G01 X8.0177 Y56.1662
G01 X8.0136 Y56.1941
G01 X8.0055 Y56.2262
G01 X7.9963 Y56.2516
G01 X7.9837 Y56.2782
G01 X7.9672 Y56.3055
G01 X7.9510 Y56.3272
G01 X7.9329 Y56.3472
G01 X7.1890 Y57.0912
G01 X7.1890 Y58.7632
G01 X7.1883 Y58.7705
G01 X7.1865 Y58.7777
G01 X7.1837 Y58.7845
G01 X7.1806 Y58.7898
G01 X7.1760 Y58.7956
G01 X7.1707 Y58.8007
G01 X7.1647 Y58.8049
G01 X7.1593 Y58.8077
G01 X7.1499 Y58.8108
G01 X7.1439 Y58.8118
G01 X7.1390 Y58.8120
G01 X5.8553 Y58.8120
G01 X5.8492 Y58.8115
G01 X5.8420 Y58.8098
G01 X5.8351 Y58.8072
G01 X5.8287 Y58.8036
G01 X5.8229 Y58.7990
G01 X5.8178 Y58.7937
G01 X5.8136 Y58.7877
G01 X5.8108 Y58.7823
G01 X5.8077 Y58.7730
G01 X5.8069 Y58.7681
G01 X5.8065 Y58.7620
G01 X5.8065 Y55.9528
G01 X5.8077 Y55.9430
G01 X5.8108 Y55.9337
G01 X5.8156 Y55.9252
G01 X5.8211 Y55.9186
G01 X5.8287 Y55.9124
G01 X5.8374 Y55.9078
G01 X5.8467 Y55.9050
G01 X5.8565 Y55.9040
G00 Z5.0000
G00 X8.7390 Y55.9040
G01 F60.00
G01 Z-0.0000
G01 F120.00
G01 X9.0801 Y55.9040
G01 X9.0801 Y55.4034
G01 X9.0815 Y55.3740
G01 X9.0864 Y55.3425
G01 X9.0930 Y55.3163
G01 X9.1029 Y55.2886
G01 X9.1155 Y55.2620
G01 X9.1321 Y55.2347
G01 X9.1482 Y55.2131
G01 X9.1671 Y55.1921
G01 X9.2769 Y55.0823
G01 X9.2769 Y54.7890
G01 X8.8533 Y54.7889
G01 X8.8460 Y54.7878
G01 X8.8379 Y54.7852
G01 X8.8303 Y54.7812
G01 X8.8243 Y54.7769
G01 X8.8183 Y54.7707
G01 X8.8141 Y54.7647
G01 X8.8108 Y54.7581
G01 X8.8082 Y54.7500
G01 X8.8072 Y54.7439
G01 X8.8070 Y54.7390
G01 X8.8070 Y53.1190
G01 X8.8074 Y53.1129
G01 X8.8085 Y53.1069
G01 X8.8108 Y53.0999
G01 X8.8135 Y53.0944
G01 X8.8168 Y53.0892
G01 X8.8208 Y53.0845
G01 X8.8253 Y53.0803
G01 X8.8313 Y53.0761
G01 X8.8367 Y53.0733
G01 X8.8437 Y53.0708
G01 X8.8497 Y53.0695
G01 X8.8558 Y53.0690
G01 X10.2970 Y53.0690
G01 X10.3031 Y53.0694
G01 X10.3091 Y53.0705
G01 X10.3161 Y53.0728
G01 X10.3216 Y53.0755
G01 X10.3278 Y53.0796
G01 X10.3324 Y53.0836
G01 X10.3364 Y53.0882
G01 X10.3399 Y53.0933
G01 X10.3432 Y53.0999
G01 X10.3452 Y53.1057
G01 X10.3465 Y53.1117
G01 X10.3470 Y53.1178
G01 X10.3470 Y54.7390
G01 X10.3466 Y54.7451
G01 X10.3455 Y54.7511
G01 X10.3427 Y54.7593
G01 X10.3392 Y54.7657
G01 X10.3349 Y54.7717
G01 X10.3297 Y54.7769
G01 X10.3227 Y54.7819
G01 X10.3161 Y54.7852
G01 X10.3091 Y54.7875
G01 X10.3007 Y54.7889
G01 X9.8772 Y54.7890
G01 X9.8771 Y55.2906
G01 X9.8754 Y55.3213
G01 X9.8714 Y55.3480
G01 X9.8649 Y55.3742
G01 X9.8543 Y55.4043
G01 X9.8405 Y55.4330
G01 X9.8266 Y55.4562
G01 X9.8105 Y55.4779
G01 X9.7901 Y55.5008
G01 X9.7674 Y55.5214
G01 X9.7428 Y55.5396
G01 X9.7174 Y55.5547
G01 X9.6930 Y55.5662
G01 X9.6803 Y55.5709
G01 X9.6803 Y55.9040
G01 X10.0215 Y55.9040
G01 X10.0276 Y55.9044
G01 X10.0372 Y55.9065
G01 X10.0451 Y55.9099
G01 X10.0532 Y55.9153
G01 X10.0594 Y55.9213
G01 X10.0644 Y55.9283
G01 X10.0681 Y55.9360
G01 X10.0705 Y55.9442
G01 X10.0715 Y55.9540
G01 X10.0713 Y58.7669
G01 X10.0697 Y58.7753
G01 X10.0667 Y58.7834
G01 X10.0624 Y58.7908
G01 X10.0569 Y58.7974
G01 X10.0503 Y58.8029
G01 X10.0429 Y58.8072
G01 X10.0360 Y58.8098
G01 X10.0276 Y58.8116
G01 X10.0215 Y58.8120
G01 X9.6803 Y58.8120
G01 X9.6803 Y59.8179
G01 X16.3358 Y66.4734
G01 X16.3748 Y66.4677
G01 X16.4508 Y66.4640
G01 X16.9520 Y66.4640
G01 X17.0304 Y66.4679
G01 X17.1081 Y66.4794
G01 X17.1866 Y66.4992
G01 X17.2581 Y66.5249
G01 X17.3291 Y66.5585
G01 X17.3965 Y66.5988
G01 X17.4576 Y66.6441
G01 X17.5185 Y66.6992
G01 X17.5704 Y66.7565
G01 X17.6185 Y66.8216
G01 X17.6575 Y66.8869
G01 X17.6901 Y66.9556
G01 X17.7168 Y67.0294
G01 X17.7366 Y67.1079
G01 X17.7481 Y67.1856
G01 X17.7520 Y67.2640
G01 X17.7481 Y67.3424
G01 X17.7366 Y67.4201
G01 X17.7176 Y67.4962
G01 X17.6911 Y67.5701
G01 X17.6563 Y67.6433
G01 X17.6172 Y67.7085
G01 X17.5719 Y67.7696
G01 X17.5194 Y67.8279
G01 X17.4595 Y67.8824
G01 X17.3975 Y67.9285
G01 X17.3291 Y67.9695
G01 X17.2559 Y68.0040
G01 X17.1842 Y68.0296
G01 X17.1105 Y68.0481
G01 X17.0316 Y68.0600
G01 X16.9520 Y68.0640
G01 X16.4520 Y68.0640
G01 X16.3748 Y68.0603
G01 X16.2959 Y68.0486
G01 X16.2221 Y68.0302
G01 X16.1436 Y68.0021
G01 X16.0749 Y67.9695
G01 X16.0075 Y67.9292
G01 X15.9445 Y67.8824
G01 X15.8872 Y67.8305
G01 X15.8336 Y67.7715
G01 X15.7868 Y67.7085
G01 X15.7465 Y67.6411
G01 X15.7139 Y67.5724
G01 X15.6858 Y67.4939
G01 X15.6674 Y67.4201
G01 X15.6557 Y67.3412
G01 X15.6520 Y67.2640
G01 X15.6559 Y67.1856
G01 X15.6674 Y67.1079
G01 X15.6861 Y67.0330
G01 X15.7129 Y66.9579
G01 X15.7459 Y66.8880
G01 X15.7862 Y66.8206
G01 X15.8065 Y66.7929
G01 X9.1680 Y60.1544
G01 X9.1482 Y60.1326
G01 X9.1313 Y60.1099
G01 X9.1144 Y60.0815
G01 X9.1029 Y60.0570
G01 X9.0930 Y60.0293
G01 X9.0854 Y59.9983
G01 X9.0815 Y59.9716
G01 X9.0801 Y59.9446
G01 X9.0801 Y58.8120
G01 X8.7390 Y58.8120
G01 X8.7329 Y58.8116
G01 X8.7245 Y58.8098
G01 X8.7165 Y58.8067
G01 X8.7092 Y58.8022
G01 X8.7028 Y58.7965
G01 X8.6974 Y58.7898
G01 X8.6933 Y58.7823
G01 X8.6905 Y58.7741
G01 X8.6892 Y58.7669
G01 X8.6890 Y55.9528
G01 X8.6902 Y55.9430
G01 X8.6933 Y55.9337
G01 X8.6981 Y55.9252
G01 X8.7045 Y55.9178
G01 X8.7112 Y55.9124
G01 X8.7199 Y55.9078
G01 X8.7292 Y55.9050
G01 X8.7390 Y55.9040
G00 Z5.0000
G00 X5.0925 Y63.9387
G01 F60.00
G01 Z-0.0000
G01 F120.00
G01 X5.2770 Y63.7543
G01 X5.2770 Y63.2778
G01 X5.2780 Y63.2692
G01 X5.2803 Y63.2610
G01 X5.2847 Y63.2523
G01 X5.2899 Y63.2454
G01 X5.2972 Y63.2388
G01 X5.3056 Y63.2338
G01 X5.3148 Y63.2305
G01 X5.3197 Y63.2295
G01 X5.3258 Y63.2290
G01 X5.7468 Y63.2290
G01 X5.7468 Y62.8529
G01 X4.9643 Y62.0703
G01 X4.9453 Y62.0494
G01 X4.9269 Y62.0249
G01 X4.9130 Y62.0017
G01 X4.8983 Y61.9707
G01 X4.8893 Y61.9452
G01 X4.8821 Y61.9167
G01 X4.8778 Y61.8875
G01 X4.8764 Y61.8606
G01 X4.8764 Y55.7245
G01 X4.8779 Y55.6939
G01 X4.8821 Y55.6660
G01 X4.8886 Y55.6398
G01 X4.8992 Y55.6097
G01 X4.9118 Y55.5830
G01 X4.9256 Y55.5599
G01 X4.9453 Y55.5332
G01 X4.9643 Y55.5123
G01 X5.3994 Y55.0772
G01 X5.4212 Y55.0574
G01 X5.4469 Y55.0386
G01 X5.4701 Y55.0247
G01 X5.4945 Y55.0131
G01 X5.5245 Y55.0022
G01 X5.5530 Y54.9951
G01 X5.5822 Y54.9907
G01 X5.6104 Y54.9893
G01 X5.7468 Y54.9893
G01 X5.7468 Y54.7890
G01 X5.3233 Y54.7889
G01 X5.3160 Y54.7878
G01 X5.3079 Y54.7852
G01 X5.3002 Y54.7812
G01 X5.2943 Y54.7769
G01 X5.2891 Y54.7717
G01 X5.2847 Y54.7657
G01 X5.2808 Y54.7581
G01 X5.2785 Y54.7511
G01 X5.2774 Y54.7451
G01 X5.2770 Y54.7390
G01 X5.2770 Y53.1190
G01 X5.2774 Y53.1129
G01 X5.2782 Y53.1080
G01 X5.2799 Y53.1022
G01 X5.2818 Y53.0976
G01 X5.2847 Y53.0923
G01 X5.2891 Y53.0863
G01 X5.2934 Y53.0820
G01 X5.2992 Y53.0774
G01 X5.3045 Y53.0743
G01 X5.3101 Y53.0719
G01 X5.3172 Y53.0700
G01 X5.3233 Y53.0691
G01 X5.7468 Y53.0690
G01 X5.7468 Y52.5686
G01 X5.7484 Y52.5379
G01 X5.7526 Y52.5100
G01 X5.7597 Y52.4814
G01 X5.7697 Y52.4537
G01 X5.7812 Y52.4293
G01 X5.7988 Y52.3998
G01 X5.8150 Y52.3782
G01 X5.8339 Y52.3572
G01 X14.7331 Y43.4580
G01 X14.7331 Y26.4765
G01 X12.8320 Y24.5754
G01 X12.8194 Y24.5811
G01 X12.7443 Y24.6077
G01 X12.6694 Y24.6264
G01 X12.5881 Y24.6383
G01 X12.5110 Y24.6420
G01 X12.4314 Y24.6381
G01 X12.3526 Y24.6264
G01 X12.2753 Y24.6070
G01 X12.2003 Y24.5802
G01 X12.1282 Y24.5461
G01 X12.0599 Y24.5052
G01 X11.9978 Y24.4592
G01 X11.9368 Y24.4042
G01 X11.8849 Y24.3470
G01 X11.8345 Y24.2790
G01 X11.7949 Y24.2128
G01 X11.7618 Y24.1430
G01 X11.7340 Y24.0657
G01 X11.7146 Y23.9884
G01 X11.7032 Y23.9120
G01 X11.6990 Y23.8300
G01 X11.7032 Y23.7480
G01 X11.7146 Y23.6716
G01 X11.7340 Y23.5943
G01 X11.7608 Y23.5193
G01 X11.7938 Y23.4494
G01 X11.8358 Y23.3789
G01 X11.8849 Y23.3130
G01 X11.9368 Y23.2558
G01 X11.9959 Y23.2023
G01 X12.0599 Y23.1548
G01 X12.1261 Y23.1151
G01 X12.2003 Y23.0798
G01 X12.2753 Y23.0530
G01 X12.3502 Y23.0341
G01 X12.4314 Y23.0219
G01 X12.5135 Y23.0181
G01 X12.5906 Y23.0219
G01 X12.6682 Y23.0334
G01 X12.7467 Y23.0530
G01 X12.8217 Y23.0798
G01 X12.8938 Y23.1139
G01 X12.9641 Y23.1563
G01 X13.0280 Y23.2039
G01 X13.0852 Y23.2558
G01 X13.1371 Y23.3130
G01 X13.1862 Y23.3789
G01 X13.2271 Y23.4472
G01 X13.2612 Y23.5193
G01 X13.2887 Y23.5967
G01 X13.3078 Y23.6740
G01 X13.3191 Y23.7504
G01 X13.3229 Y23.8275
G01 X13.3191 Y23.9096
G01 X13.3074 Y23.9884
G01 X13.2880 Y24.0657
G01 X13.2621 Y24.1384
G01 X13.2564 Y24.1510
G01 X15.2463 Y26.1409
G01 X15.2652 Y26.1618
G01 X15.2814 Y26.1835
G01 X15.2990 Y26.2129
G01 X15.3105 Y26.2374
G01 X15.3204 Y26.2651
G01 X15.3276 Y26.2937
G01 X15.3318 Y26.3216
G01 X15.3333 Y26.3522
G01 X15.3333 Y43.5823
G01 X15.3316 Y43.6142
G01 X15.3276 Y43.6409
G01 X15.3204 Y43.6694
G01 X15.3105 Y43.6972
G01 X15.2990 Y43.7216
G01 X15.2814 Y43.7510
G01 X15.2652 Y43.7727
G01 X15.2454 Y43.7945
G01 X6.3471 Y52.6929
G01 X6.3471 Y53.0690
G01 X6.7707 Y53.0691
G01 X6.7779 Y53.0702
G01 X6.7861 Y53.0728
G01 X6.7937 Y53.0768
G01 X6.7996 Y53.0811
G01 X6.8056 Y53.0873
G01 X6.8099 Y53.0933
G01 X6.8132 Y53.0999
G01 X6.8158 Y53.1080
G01 X6.8167 Y53.1141
G01 X6.8170 Y53.1190
G01 X6.8167 Y54.7439
G01 X6.8152 Y54.7523
G01 X6.8122 Y54.7604
G01 X6.8079 Y54.7678
G01 X6.8023 Y54.7744
G01 X6.7958 Y54.7799
G01 X6.7884 Y54.7842
G01 X6.7803 Y54.7872
G01 X6.7719 Y54.7888
G01 X6.3471 Y54.7890
G01 X6.3471 Y55.2894
G01 X6.3456 Y55.3188
G01 X6.3408 Y55.3504
G01 X6.3342 Y55.3765
G01 X6.3242 Y55.4043
G01 X6.3104 Y55.4330
G01 X6.2965 Y55.4562
G01 X6.2789 Y55.4798
G01 X6.2592 Y55.5016
G01 X6.2373 Y55.5214
G01 X6.2137 Y55.5390
G01 X6.1906 Y55.5529
G01 X6.1595 Y55.5676
G01 X6.1341 Y55.5766
G01 X6.1055 Y55.5838
G01 X6.0764 Y55.5881
G01 X6.0482 Y55.5895
G01 X5.7359 Y55.5895
G01 X5.4766 Y55.8488
G01 X5.4766 Y61.7338
G01 X6.2592 Y62.5163
G01 X6.2805 Y62.5401
G01 X6.2965 Y62.5618
G01 X6.3110 Y62.5860
G01 X6.3242 Y62.6137
G01 X6.3342 Y62.6414
G01 X6.3413 Y62.6700
G01 X6.3458 Y62.7016
G01 X6.3471 Y62.7286
G01 X6.3471 Y63.2290
G01 X6.7707 Y63.2291
G01 X6.7779 Y63.2302
G01 X6.7838 Y63.2319
G01 X6.7906 Y63.2349
G01 X6.7968 Y63.2388
G01 X6.8023 Y63.2436
G01 X6.8064 Y63.2482
G01 X6.8099 Y63.2533
G01 X6.8132 Y63.2599
G01 X6.8160 Y63.2692
G01 X6.8170 Y63.2790
G01 X6.8169 Y64.9015
G01 X6.8158 Y64.9100
G01 X6.8127 Y64.9193
G01 X6.8086 Y64.9268
G01 X6.8023 Y64.9344
G01 X6.7958 Y64.9399
G01 X6.7873 Y64.9447
G01 X6.7779 Y64.9478
G01 X6.7694 Y64.9489
G01 X5.6049 Y64.9490
G01 X5.6049 Y72.0221
G01 X6.2600 Y72.6772
G01 X6.2789 Y72.6982
G01 X6.2951 Y72.7198
G01 X6.3116 Y72.7471
G01 X6.3242 Y72.7737
G01 X6.3342 Y72.8014
G01 X6.3413 Y72.8300
G01 X6.3458 Y72.8616
G01 X6.3471 Y72.8886
G01 X6.3471 Y73.3890
G01 X6.7682 Y73.3890
G01 X6.7779 Y73.3902
G01 X6.7873 Y73.3933
G01 X6.7958 Y73.3981
G01 X6.8032 Y73.4045
G01 X6.8092 Y73.4123
G01 X6.8132 Y73.4199
G01 X6.8160 Y73.4292
G01 X6.8170 Y73.4378
G01 X6.8170 Y73.9144
G01 X7.9037 Y75.0011
G01 X7.9241 Y75.0240
G01 X7.9401 Y75.0457
G01 X7.9541 Y75.0688
G01 X7.9679 Y75.0976
G01 X7.9778 Y75.1253
G01 X7.9849 Y75.1539
G01 X7.9890 Y75.1806
G01 X7.9907 Y75.2124
G01 X7.9907 Y79.6639
G01 X15.7107 Y79.6639
G01 X15.7139 Y79.6556
G01 X15.7465 Y79.5869
G01 X15.7868 Y79.5195
G01 X15.8336 Y79.4565
G01 X15.8863 Y79.3983
G01 X15.9445 Y79.3456
G01 X16.0075 Y79.2988
G01 X16.0749 Y79.2585
G01 X16.1459 Y79.2249
G01 X16.2198 Y79.1984
G01 X16.2935 Y79.1799
G01 X16.3748 Y79.1677
G01 X16.4520 Y79.1640
G01 X16.9545 Y79.1641
G01 X17.0304 Y79.1679
G01 X17.1081 Y79.1794
G01 X17.1842 Y79.1984
G01 X17.2604 Y79.2259
G01 X17.3291 Y79.2585
G01 X17.3985 Y79.3002
G01 X17.4614 Y79.3472
G01 X17.5177 Y79.3983
G01 X17.5688 Y79.4546
G01 X17.6172 Y79.5195
G01 X17.6575 Y79.5869
G01 X17.6911 Y79.6579
G01 X17.7176 Y79.7318
G01 X17.7366 Y79.8079
G01 X17.7481 Y79.8856
G01 X17.7520 Y79.9640
G01 X17.7481 Y80.0424
G01 X17.7366 Y80.1201
G01 X17.7176 Y80.1962
G01 X17.6911 Y80.2701
G01 X17.6586 Y80.3389
G01 X17.6172 Y80.4085
G01 X17.5719 Y80.4696
G01 X17.5159 Y80.5314
G01 X17.4595 Y80.5824
G01 X17.3965 Y80.6292
G01 X17.3291 Y80.6695
G01 X17.2581 Y80.7031
G01 X17.1842 Y80.7296
G01 X17.1081 Y80.7486
G01 X17.0304 Y80.7601
G01 X16.9532 Y80.7640
G01 X16.4520 Y80.7640
G01 X16.3748 Y80.7603
G01 X16.2935 Y80.7481
G01 X16.2198 Y80.7296
G01 X16.1459 Y80.7031
G01 X16.0749 Y80.6695
G01 X16.0075 Y80.6292
G01 X15.9445 Y80.5824
G01 X15.8863 Y80.5297
G01 X15.8336 Y80.4715
G01 X15.7868 Y80.4085
G01 X15.7465 Y80.3411
G01 X15.7139 Y80.2724
G01 X15.7107 Y80.2641
G01 X7.9907 Y80.2641
G01 X7.9907 Y84.0359
G01 X7.9893 Y84.0653
G01 X7.9844 Y84.0968
G01 X7.9778 Y84.1230
G01 X7.9687 Y84.1484
G01 X7.9553 Y84.1773
G01 X7.9387 Y84.2046
G01 X7.9226 Y84.2263
G01 X7.9045 Y84.2463
G01 X7.5288 Y84.6221
G01 X7.5079 Y84.6410
G01 X7.4862 Y84.6571
G01 X7.4589 Y84.6737
G01 X7.4323 Y84.6863
G01 X7.4046 Y84.6962
G01 X7.3760 Y84.7034
G01 X7.3444 Y84.7079
G01 X7.3175 Y84.7091
G01 X6.8170 Y84.7091
G01 X6.8169 Y85.2227
G01 X6.8155 Y85.2311
G01 X6.8127 Y85.2393
G01 X6.8086 Y85.2468
G01 X6.8023 Y85.2544
G01 X6.7958 Y85.2599
G01 X6.7884 Y85.2642
G01 X6.7803 Y85.2672
G01 X6.7707 Y85.2689
G01 X5.3258 Y85.2690
G01 X5.3172 Y85.2680
G01 X5.3079 Y85.2652
G01 X5.2992 Y85.2606
G01 X5.2925 Y85.2552
G01 X5.2868 Y85.2488
G01 X5.2818 Y85.2404
G01 X5.2785 Y85.2311
G01 X5.2771 Y85.2227
G01 X5.2770 Y83.5978
G01 X5.2775 Y83.5917
G01 X5.2788 Y83.5857
G01 X5.2808 Y83.5799
G01 X5.2835 Y83.5744
G01 X5.2868 Y83.5692
G01 X5.2908 Y83.5645
G01 X5.2953 Y83.5603
G01 X5.3002 Y83.5568
G01 X5.3067 Y83.5533
G01 X5.3125 Y83.5512
G01 X5.3197 Y83.5495
G01 X5.3270 Y83.5490
G01 X6.7670 Y83.5490
G01 X6.7755 Y83.5497
G01 X6.7838 Y83.5519
G01 X6.7906 Y83.5549
G01 X6.7968 Y83.5588
G01 X6.8023 Y83.5636
G01 X6.8072 Y83.5692
G01 X6.8111 Y83.5754
G01 X6.8141 Y83.5822
G01 X6.8160 Y83.5892
G01 X6.8169 Y83.5965
G01 X6.8170 Y84.1089
G01 X7.1931 Y84.1089
G01 X7.3905 Y83.9116
G01 X7.3905 Y75.3367
G01 X6.8170 Y74.7633
G01 X6.8170 Y75.0590
G01 X6.8166 Y75.0651
G01 X6.8148 Y75.0735
G01 X6.8122 Y75.0804
G01 X6.8079 Y75.0878
G01 X6.8032 Y75.0935
G01 X6.7978 Y75.0984
G01 X6.7916 Y75.1025
G01 X6.7838 Y75.1061
G01 X6.7767 Y75.1080
G01 X6.7670 Y75.1090
G01 X5.3258 Y75.1090
G01 X5.3172 Y75.1080
G01 X5.3101 Y75.1061
G01 X5.3023 Y75.1025
G01 X5.2953 Y75.0977
G01 X5.2891 Y75.0917
G01 X5.2841 Y75.0847
G01 X5.2803 Y75.0770
G01 X5.2780 Y75.0688
G01 X5.2770 Y75.0590
G01 X5.2770 Y73.4390
G01 X5.2774 Y73.4329
G01 X5.2782 Y73.4280
G01 X5.2803 Y73.4210
G01 X5.2841 Y73.4133
G01 X5.2891 Y73.4063
G01 X5.2943 Y73.4011
G01 X5.3013 Y73.3961
G01 X5.3079 Y73.3928
G01 X5.3160 Y73.3902
G01 X5.3233 Y73.3891
G01 X5.7468 Y73.3890
G01 X5.7468 Y73.0129
G01 X5.0925 Y72.3586
G01 X5.0736 Y72.3377
G01 X5.0539 Y72.3110
G01 X5.0401 Y72.2879
G01 X5.0275 Y72.2612
G01 X5.0176 Y72.2335
G01 X5.0109 Y72.2073
G01 X5.0060 Y72.1746
G01 X5.0046 Y72.1464
G01 X5.0046 Y64.1510
G01 X5.0061 Y64.1216
G01 X5.0104 Y64.0924
G01 X5.0176 Y64.0638
G01 X5.0275 Y64.0361
G01 X5.0401 Y64.0095
G01 X5.0552 Y63.9842
G01 X5.0728 Y63.9606
G01 X5.0925 Y63.9387
G00 Z5.0000
G00 X5.8565 Y66.0640
G01 F60.00
G01 Z-0.0000
G01 F120.00
G01 X6.1977 Y66.0640
G01 X6.1977 Y65.5635
G01 X6.1991 Y65.5340
G01 X6.2030 Y65.5073
G01 X6.2106 Y65.4763
G01 X6.2196 Y65.4509
G01 X6.2343 Y65.4198
G01 X6.2483 Y65.3967
G01 X6.2658 Y65.3731
G01 X6.2856 Y65.3512
G01 X6.3074 Y65.3315
G01 X6.3331 Y65.3126
G01 X6.3563 Y65.2988
G01 X6.3829 Y65.2862
G01 X6.4130 Y65.2756
G01 X6.4392 Y65.2691
G01 X6.4684 Y65.2648
G01 X6.4978 Y65.2633
G01 X6.9694 Y65.2633
G01 X7.5116 Y64.7211
G01 X7.5116 Y59.4186
G01 X7.4927 Y59.4012
G01 X7.4647 Y59.3703
G01 X7.4383 Y59.3349
G01 X7.4149 Y59.2961
G01 X7.3955 Y59.2550
G01 X7.3811 Y59.2146
G01 X7.3700 Y59.1693
G01 X7.3639 Y59.1280
G01 X7.3618 Y59.0864
G01 X7.3638 Y59.0410
G01 X7.3704 Y58.9961
G01 X7.3811 Y58.9533
G01 X7.3960 Y58.9117
G01 X7.4161 Y58.8697
G01 X7.4376 Y58.8339
G01 X7.4624 Y58.8004
G01 X7.4918 Y58.7675
G01 X7.5263 Y58.7361
G01 X7.5617 Y58.7098
G01 X7.5996 Y58.6871
G01 X7.6395 Y58.6682
G01 X7.6811 Y58.6533
G01 X7.7264 Y58.6422
G01 X7.7676 Y58.6361
G01 X7.8093 Y58.6340
G01 X7.8534 Y58.6359
G01 X7.8995 Y58.6426
G01 X7.9412 Y58.6530
G01 X7.9862 Y58.6692
G01 X8.0239 Y58.6871
G01 X8.0617 Y58.7098
G01 X8.0972 Y58.7361
G01 X8.1282 Y58.7640
G01 X8.1611 Y58.8004
G01 X8.1859 Y58.8339
G01 X8.2086 Y58.8718
G01 X8.2275 Y58.9117
G01 X8.2416 Y58.9510
G01 X8.2535 Y58.9986
G01 X8.2596 Y59.0398
G01 X8.2617 Y59.0827
G01 X8.2596 Y59.1280
G01 X8.2531 Y59.1717
G01 X8.2424 Y59.2146
G01 X8.2270 Y59.2573
G01 X8.2086 Y59.2961
G01 X8.1852 Y59.3349
G01 X8.1588 Y59.3703
G01 X8.1308 Y59.4012
G01 X8.1119 Y59.4186
G01 X8.1119 Y64.8454
G01 X8.1105 Y64.8736
G01 X8.1056 Y64.9064
G01 X8.0989 Y64.9325
G01 X8.0890 Y64.9603
G01 X8.0764 Y64.9869
G01 X8.0626 Y65.0101
G01 X8.0421 Y65.0377
G01 X8.0240 Y65.0576
G01 X7.3059 Y65.7757
G01 X7.2821 Y65.7970
G01 X7.2604 Y65.8130
G01 X7.2373 Y65.8269
G01 X7.2085 Y65.8407
G01 X7.1784 Y65.8513
G01 X7.1522 Y65.8578
G01 X7.1255 Y65.8618
G01 X7.0937 Y65.8636
G01 X6.7979 Y65.8636
G01 X6.7979 Y66.0640
G01 X7.1390 Y66.0640
G01 X7.1451 Y66.0644
G01 X7.1535 Y66.0662
G01 X7.1615 Y66.0693
G01 X7.1678 Y66.0731
G01 X7.1743 Y66.0786
G01 X7.1792 Y66.0842
G01 X7.1837 Y66.0915
G01 X7.1868 Y66.0995
G01 X7.1886 Y66.1079
G01 X7.1890 Y66.1140
G01 X7.1890 Y68.9220
G01 X7.1884 Y68.9293
G01 X7.1868 Y68.9365
G01 X7.1842 Y68.9434
G01 X7.1806 Y68.9498
G01 X7.1760 Y68.9556
G01 X7.1716 Y68.9599
G01 X7.1657 Y68.9642
G01 X7.1593 Y68.9677
G01 X7.1547 Y68.9695
G01 X7.1487 Y68.9710
G01 X7.1390 Y68.9720
G01 X5.8553 Y68.9720
G01 X5.8479 Y68.9713
G01 X5.8408 Y68.9695
G01 X5.8351 Y68.9672
G01 X5.8287 Y68.9636
G01 X5.8229 Y68.9590
G01 X5.8178 Y68.9537
G01 X5.8136 Y68.9477
G01 X5.8108 Y68.9423
G01 X5.8077 Y68.9330
G01 X5.8069 Y68.9281
G01 X5.8065 Y68.9220
G01 X5.8065 Y66.1128
G01 X5.8077 Y66.1030
G01 X5.8108 Y66.0937
G01 X5.8156 Y66.0852
G01 X5.8220 Y66.0778
G01 X5.8297 Y66.0718
G01 X5.8385 Y66.0674
G01 X5.8467 Y66.0650
G01 X5.8565 Y66.0640
G00 Z5.0000
G00 X8.7390 Y66.0640
G01 F60.00
G01 Z-0.0000
G01 F120.00
G01 X9.0801 Y66.0640
G01 X9.0801 Y65.5622
G01 X9.0818 Y65.5316
G01 X9.0858 Y65.5049
G01 X9.0923 Y65.4787
G01 X9.1029 Y65.4486
G01 X9.1167 Y65.4198
G01 X9.1306 Y65.3967
G01 X9.1467 Y65.3750
G01 X9.1671 Y65.3521
G01 X9.1898 Y65.3315
G01 X9.2145 Y65.3132
G01 X9.2398 Y65.2982
G01 X9.2642 Y65.2867
G01 X9.2769 Y65.2820
G01 X9.2769 Y64.9490
G01 X8.8533 Y64.9489
G01 X8.8449 Y64.9475
G01 X8.8379 Y64.9452
G01 X8.8303 Y64.9412
G01 X8.8243 Y64.9369
G01 X8.8191 Y64.9317
G01 X8.8141 Y64.9247
G01 X8.8104 Y64.9170
G01 X8.8082 Y64.9100
G01 X8.8074 Y64.9051
G01 X8.8070 Y64.8990
G01 X8.8070 Y63.2790
G01 X8.8074 Y63.2729
G01 X8.8085 Y63.2669
G01 X8.8108 Y63.2599
G01 X8.8135 Y63.2544
G01 X8.8168 Y63.2492
G01 X8.8208 Y63.2445
G01 X8.8253 Y63.2403
G01 X8.8313 Y63.2361
G01 X8.8367 Y63.2333
G01 X8.8437 Y63.2308
G01 X8.8497 Y63.2295
G01 X8.8558 Y63.2290
G01 X10.2970 Y63.2290
G01 X10.3031 Y63.2294
G01 X10.3091 Y63.2305
G01 X10.3161 Y63.2328
G01 X10.3216 Y63.2355
G01 X10.3278 Y63.2396
G01 X10.3324 Y63.2436
G01 X10.3364 Y63.2482
G01 X10.3399 Y63.2533
G01 X10.3432 Y63.2599
G01 X10.3452 Y63.2657
G01 X10.3465 Y63.2717
G01 X10.3470 Y63.2778
G01 X10.3470 Y64.8990
G01 X10.3466 Y64.9051
G01 X10.3455 Y64.9111
G01 X10.3432 Y64.9181
G01 X10.3399 Y64.9247
G01 X10.3349 Y64.9317
G01 X10.3297 Y64.9369
G01 X10.3227 Y64.9419
G01 X10.3161 Y64.9452
G01 X10.3080 Y64.9478
G01 X10.3007 Y64.9489
G01 X9.8772 Y64.9490
G01 X9.8772 Y65.4494
G01 X9.8757 Y65.4788
G01 X9.8709 Y65.5104
G01 X9.8642 Y65.5365
G01 X9.8543 Y65.5643
G01 X9.8417 Y65.5909
G01 X9.8252 Y65.6182
G01 X9.8090 Y65.6398
G01 X9.7901 Y65.6608
G01 X9.6803 Y65.7706
G01 X9.6803 Y66.0640
G01 X10.0215 Y66.0640
G01 X10.0276 Y66.0644
G01 X10.0360 Y66.0662
G01 X10.0440 Y66.0693
G01 X10.0513 Y66.0738
G01 X10.0585 Y66.0804
G01 X10.0637 Y66.0873
G01 X10.0681 Y66.0960
G01 X10.0705 Y66.1042
G01 X10.0715 Y66.1140
G01 X10.0715 Y68.9220
G01 X10.0711 Y68.9281
G01 X10.0697 Y68.9353
G01 X10.0667 Y68.9434
G01 X10.0624 Y68.9508
G01 X10.0569 Y68.9574
G01 X10.0513 Y68.9622
G01 X10.0440 Y68.9667
G01 X10.0360 Y68.9698
G01 X10.0276 Y68.9716
G01 X10.0215 Y68.9720
G01 X9.6803 Y68.9720
G01 X9.6803 Y69.3482
G01 X12.3760 Y72.0439
G01 X15.7107 Y72.0439
G01 X15.7139 Y72.0356
G01 X15.7465 Y71.9669
G01 X15.7868 Y71.8995
G01 X15.8336 Y71.8365
G01 X15.8881 Y71.7766
G01 X15.9445 Y71.7256
G01 X16.0096 Y71.6775
G01 X16.0771 Y71.6374
G01 X16.1459 Y71.6049
G01 X16.2174 Y71.5792
G01 X16.2983 Y71.5590
G01 X16.3736 Y71.5479
G01 X16.4508 Y71.5440
G01 X16.9532 Y71.5440
G01 X17.0304 Y71.5479
G01 X17.1057 Y71.5590
G01 X17.1842 Y71.5784
G01 X17.2604 Y71.6059
G01 X17.3291 Y71.6385
G01 X17.3944 Y71.6775
G01 X17.4595 Y71.7256
G01 X17.5194 Y71.7801
G01 X17.5704 Y71.8365
G01 X17.6158 Y71.8975
G01 X17.6575 Y71.9669
G01 X17.6920 Y72.0401
G01 X17.7176 Y72.1118
G01 X17.7361 Y72.1855
G01 X17.7481 Y72.2656
G01 X17.7519 Y72.3465
G01 X17.7481 Y72.4224
G01 X17.7370 Y72.4977
G01 X17.7176 Y72.5762
G01 X17.6901 Y72.6524
G01 X17.6575 Y72.7211
G01 X17.6185 Y72.7864
G01 X17.5712 Y72.8506
G01 X17.5177 Y72.9097
G01 X17.4614 Y72.9608
G01 X17.3944 Y73.0105
G01 X17.3291 Y73.0495
G01 X17.2581 Y73.0831
G01 X17.1842 Y73.1096
G01 X17.1105 Y73.1281
G01 X17.0304 Y73.1401
G01 X16.9532 Y73.1440
G01 X16.4520 Y73.1440
G01 X16.3760 Y73.1403
G01 X16.2935 Y73.1281
G01 X16.2198 Y73.1096
G01 X16.1459 Y73.0831
G01 X16.0727 Y73.0483
G01 X16.0075 Y73.0092
G01 X15.9464 Y72.9639
G01 X15.8846 Y72.9079
G01 X15.8336 Y72.8515
G01 X15.7882 Y72.7905
G01 X15.7465 Y72.7211
G01 X15.7139 Y72.6524
G01 X15.7107 Y72.6441
G01 X12.2504 Y72.6441
G01 X12.2222 Y72.6427
G01 X12.1955 Y72.6388
G01 X12.1622 Y72.6304
G01 X12.1368 Y72.6213
G01 X12.1102 Y72.6087
G01 X12.0849 Y72.5935
G01 X12.0622 Y72.5768
G01 X12.0394 Y72.5562
G01 X9.1680 Y69.6848
G01 X9.1482 Y69.6629
G01 X9.1306 Y69.6393
G01 X9.1167 Y69.6161
G01 X9.1029 Y69.5874
G01 X9.0923 Y69.5573
G01 X9.0858 Y69.5311
G01 X9.0815 Y69.5019
G01 X9.0801 Y69.4725
G01 X9.0801 Y68.9720
G01 X8.7353 Y68.9719
G01 X8.7280 Y68.9708
G01 X8.7222 Y68.9691
G01 X8.7165 Y68.9667
G01 X8.7112 Y68.9636
G01 X8.7063 Y68.9599
G01 X8.7020 Y68.9556
G01 X8.6974 Y68.9498
G01 X8.6943 Y68.9445
G01 X8.6924 Y68.9400
G01 X8.6905 Y68.9341
G01 X8.6894 Y68.9281
G01 X8.6890 Y68.9220
G01 X8.6890 Y66.1128
G01 X8.6902 Y66.1030
G01 X8.6933 Y66.0937
G01 X8.6981 Y66.0852
G01 X8.7045 Y66.0778
G01 X8.7123 Y66.0718
G01 X8.7199 Y66.0678
G01 X8.7292 Y66.0650
G01 X8.7390 Y66.0640
G00 Z5.0000
G00 X16.4520 Y63.9240
G01 F60.00
G01 Z-0.0000
G01 F120.00
G01 X16.9545 Y63.9241
G01 X17.0304 Y63.9279
G01 X17.1057 Y63.9390
G01 X17.1842 Y63.9584
G01 X17.2581 Y63.9849
G01 X17.3291 Y64.0185
G01 X17.3965 Y64.0588
G01 X17.4576 Y64.1041
G01 X17.5194 Y64.1601
G01 X17.5704 Y64.2165
G01 X17.6178 Y64.2806
G01 X17.6575 Y64.3469
G01 X17.6911 Y64.4179
G01 X17.7176 Y64.4918
G01 X17.7366 Y64.5679
G01 X17.7481 Y64.6456
G01 X17.7520 Y64.7240
G01 X17.7481 Y64.8024
G01 X17.7366 Y64.8801
G01 X17.7176 Y64.9562
G01 X17.6911 Y65.0301
G01 X17.6575 Y65.1011
G01 X17.6172 Y65.1685
G01 X17.5704 Y65.2315
G01 X17.5177 Y65.2897
G01 X17.4595 Y65.3424
G01 X17.3954 Y65.3898
G01 X17.3291 Y65.4295
G01 X17.2559 Y65.4640
G01 X17.1842 Y65.4896
G01 X17.1105 Y65.5081
G01 X17.0316 Y65.5200
G01 X16.9520 Y65.5240
G01 X16.4520 Y65.5240
G01 X16.3712 Y65.5198
G01 X16.2959 Y65.5086
G01 X16.2174 Y65.4888
G01 X16.1459 Y65.4631
G01 X16.0771 Y65.4306
G01 X16.0096 Y65.3905
G01 X15.9445 Y65.3424
G01 X15.8863 Y65.2897
G01 X15.8336 Y65.2315
G01 X15.7862 Y65.1674
G01 X15.7465 Y65.1011
G01 X15.7139 Y65.0324
G01 X15.6864 Y64.9562
G01 X15.6670 Y64.8777
G01 X15.6559 Y64.8024
G01 X15.6521 Y64.7265
G01 X15.6559 Y64.6456
G01 X15.6679 Y64.5655
G01 X15.6864 Y64.4918
G01 X15.7120 Y64.4201
G01 X15.7465 Y64.3469
G01 X15.7868 Y64.2795
G01 X15.8321 Y64.2184
G01 X15.8863 Y64.1583
G01 X15.9464 Y64.1041
G01 X16.0075 Y64.0588
G01 X16.0727 Y64.0197
G01 X16.1459 Y63.9849
G01 X16.2221 Y63.9578
G01 X16.2959 Y63.9394
G01 X16.3712 Y63.9282
G01 X16.4520 Y63.9240
G00 Z5.0000
G00 X16.4520 Y69.0040
G01 F60.00
G01 Z-0.0000
G01 F120.00
G01 X16.9545 Y69.0041
G01 X17.0304 Y69.0079
G01 X17.1057 Y69.0190
G01 X17.1842 Y69.0384
G01 X17.2581 Y69.0649
G01 X17.3291 Y69.0985
G01 X17.3965 Y69.1388
G01 X17.4576 Y69.1841
G01 X17.5194 Y69.2401
G01 X17.5704 Y69.2965
G01 X17.6178 Y69.3606
G01 X17.6575 Y69.4269
G01 X17.6911 Y69.4979
G01 X17.7176 Y69.5718
G01 X17.7366 Y69.6479
G01 X17.7481 Y69.7256
G01 X17.7520 Y69.8040
G01 X17.7481 Y69.8824
G01 X17.7366 Y69.9601
G01 X17.7176 Y70.0362
G01 X17.6911 Y70.1101
G01 X17.6575 Y70.1811
G01 X17.6172 Y70.2485
G01 X17.5704 Y70.3115
G01 X17.5177 Y70.3697
G01 X17.4595 Y70.4224
G01 X17.3954 Y70.4698
G01 X17.3291 Y70.5095
G01 X17.2559 Y70.5440
G01 X17.1842 Y70.5696
G01 X17.1105 Y70.5881
G01 X17.0316 Y70.6000
G01 X16.9520 Y70.6040
G01 X16.4520 Y70.6040
G01 X16.3712 Y70.5998
G01 X16.2959 Y70.5886
G01 X16.2174 Y70.5688
G01 X16.1459 Y70.5431
G01 X16.0771 Y70.5106
G01 X16.0096 Y70.4705
G01 X15.9445 Y70.4224
G01 X15.8863 Y70.3697
G01 X15.8336 Y70.3115
G01 X15.7862 Y70.2474
G01 X15.7465 Y70.1811
G01 X15.7139 Y70.1124
G01 X15.6864 Y70.0362
G01 X15.6670 Y69.9577
G01 X15.6559 Y69.8824
G01 X15.6521 Y69.8065
G01 X15.6559 Y69.7256
G01 X15.6679 Y69.6455
G01 X15.6864 Y69.5718
G01 X15.7120 Y69.5001
G01 X15.7465 Y69.4269
G01 X15.7868 Y69.3595
G01 X15.8321 Y69.2984
G01 X15.8863 Y69.2383
G01 X15.9464 Y69.1841
G01 X16.0075 Y69.1388
G01 X16.0727 Y69.0997
G01 X16.1459 Y69.0649
G01 X16.2221 Y69.0378
G01 X16.2959 Y69.0194
G01 X16.3712 Y69.0082
G01 X16.4520 Y69.0040
G00 Z5.0000
G00 X16.4520 Y74.0840
G01 F60.00
G01 Z-0.0000
G01 F120.00
G01 X16.9545 Y74.0841
G01 X17.0304 Y74.0879
G01 X17.1057 Y74.0990
G01 X17.1842 Y74.1184
G01 X17.2581 Y74.1449
G01 X17.3291 Y74.1785
G01 X17.3965 Y74.2188
G01 X17.4576 Y74.2641
G01 X17.5194 Y74.3201
G01 X17.5704 Y74.3765
G01 X17.6178 Y74.4406
G01 X17.6575 Y74.5069
G01 X17.6911 Y74.5779
G01 X17.7176 Y74.6518
G01 X17.7366 Y74.7279
G01 X17.7481 Y74.8056
G01 X17.7520 Y74.8840
G01 X17.7481 Y74.9624
G01 X17.7366 Y75.0401
G01 X17.7176 Y75.1162
G01 X17.6911 Y75.1901
G01 X17.6575 Y75.2611
G01 X17.6172 Y75.3285
G01 X17.5704 Y75.3915
G01 X17.5177 Y75.4497
G01 X17.4595 Y75.5024
G01 X17.3954 Y75.5498
G01 X17.3291 Y75.5895
G01 X17.2559 Y75.6240
G01 X17.1842 Y75.6496
G01 X17.1105 Y75.6681
G01 X17.0316 Y75.6800
G01 X16.9520 Y75.6840
G01 X16.4520 Y75.6840
G01 X16.3712 Y75.6798
G01 X16.2959 Y75.6686
G01 X16.2174 Y75.6488
G01 X16.1459 Y75.6231
G01 X16.0771 Y75.5906
G01 X16.0096 Y75.5505
G01 X15.9445 Y75.5024
G01 X15.8863 Y75.4497
G01 X15.8336 Y75.3915
G01 X15.7862 Y75.3274
G01 X15.7465 Y75.2611
G01 X15.7139 Y75.1924
G01 X15.6864 Y75.1162
G01 X15.6670 Y75.0377
G01 X15.6559 Y74.9624
G01 X15.6521 Y74.8865
G01 X15.6559 Y74.8056
G01 X15.6679 Y74.7255
G01 X15.6864 Y74.6518
G01 X15.7120 Y74.5801
G01 X15.7465 Y74.5069
G01 X15.7868 Y74.4395
G01 X15.8321 Y74.3784
G01 X15.8863 Y74.3183
G01 X15.9464 Y74.2641
G01 X16.0075 Y74.2188
G01 X16.0727 Y74.1797
G01 X16.1459 Y74.1449
G01 X16.2221 Y74.1178
G01 X16.2959 Y74.0994
G01 X16.3712 Y74.0882
G01 X16.4520 Y74.0840
G00 Z5.0000
G00 X24.0720 Y74.0840
G01 F60.00
G01 Z-0.0000
G01 F120.00
G01 X24.5745 Y74.0841
G01 X24.6504 Y74.0879
G01 X24.7257 Y74.0990
G01 X24.8042 Y74.1184
G01 X24.8781 Y74.1449
G01 X24.9491 Y74.1785
G01 X25.0165 Y74.2188
G01 X25.0776 Y74.2641
G01 X25.1394 Y74.3201
G01 X25.1904 Y74.3765
G01 X25.2378 Y74.4406
G01 X25.2775 Y74.5069
G01 X25.3111 Y74.5779
G01 X25.3376 Y74.6518
G01 X25.3566 Y74.7279
G01 X25.3681 Y74.8056
G01 X25.3720 Y74.8840
G01 X25.3681 Y74.9624
G01 X25.3566 Y75.0401
G01 X25.3376 Y75.1162
G01 X25.3111 Y75.1901
G01 X25.2775 Y75.2611
G01 X25.2372 Y75.3285
G01 X25.1904 Y75.3915
G01 X25.1377 Y75.4497
G01 X25.0795 Y75.5024
G01 X25.0154 Y75.5498
G01 X24.9491 Y75.5895
G01 X24.8759 Y75.6240
G01 X24.8042 Y75.6496
G01 X24.7305 Y75.6681
G01 X24.6516 Y75.6800
G01 X24.5720 Y75.6840
G01 X24.0720 Y75.6840
G01 X23.9912 Y75.6798
G01 X23.9159 Y75.6686
G01 X23.8374 Y75.6488
G01 X23.7659 Y75.6231
G01 X23.6971 Y75.5906
G01 X23.6296 Y75.5505
G01 X23.5645 Y75.5024
G01 X23.5063 Y75.4497
G01 X23.4536 Y75.3915
G01 X23.4062 Y75.3274
G01 X23.3665 Y75.2611
G01 X23.3339 Y75.1924
G01 X23.3064 Y75.1162
G01 X23.2870 Y75.0377
G01 X23.2759 Y74.9624
G01 X23.2721 Y74.8865
G01 X23.2759 Y74.8056
G01 X23.2879 Y74.7255
G01 X23.3064 Y74.6518
G01 X23.3320 Y74.5801
G01 X23.3665 Y74.5069
G01 X23.4068 Y74.4395
G01 X23.4521 Y74.3784
G01 X23.5063 Y74.3183
G01 X23.5664 Y74.2641
G01 X23.6275 Y74.2188
G01 X23.6927 Y74.1797
G01 X23.7659 Y74.1449
G01 X23.8421 Y74.1178
G01 X23.9159 Y74.0994
G01 X23.9912 Y74.0882
G01 X24.0720 Y74.0840
G00 Z5.0000
G00 X24.0720 Y71.5440
G01 F60.00
G01 Z-0.0000
G01 F120.00
G01 X24.5745 Y71.5441
G01 X24.6504 Y71.5479
G01 X24.7257 Y71.5590
G01 X24.8042 Y71.5784
G01 X24.8781 Y71.6049
G01 X24.9491 Y71.6385
G01 X25.0165 Y71.6788
G01 X25.0776 Y71.7241
G01 X25.1394 Y71.7801
G01 X25.1904 Y71.8365
G01 X25.2378 Y71.9006
G01 X25.2775 Y71.9669
G01 X25.3111 Y72.0379
G01 X25.3376 Y72.1118
G01 X25.3566 Y72.1879
G01 X25.3681 Y72.2656
G01 X25.3720 Y72.3440
G01 X25.3681 Y72.4224
G01 X25.3566 Y72.5001
G01 X25.3376 Y72.5762
G01 X25.3111 Y72.6501
G01 X25.2775 Y72.7211
G01 X25.2372 Y72.7885
G01 X25.1904 Y72.8515
G01 X25.1377 Y72.9097
G01 X25.0795 Y72.9624
G01 X25.0154 Y73.0098
G01 X24.9491 Y73.0495
G01 X24.8759 Y73.0840
G01 X24.8042 Y73.1096
G01 X24.7305 Y73.1281
G01 X24.6516 Y73.1400
G01 X24.5720 Y73.1440
G01 X24.0720 Y73.1440
G01 X23.9912 Y73.1398
G01 X23.9159 Y73.1286
G01 X23.8374 Y73.1088
G01 X23.7659 Y73.0831
G01 X23.6971 Y73.0506
G01 X23.6296 Y73.0105
G01 X23.5645 Y72.9624
G01 X23.5063 Y72.9097
G01 X23.4536 Y72.8515
G01 X23.4062 Y72.7874
G01 X23.3665 Y72.7211
G01 X23.3339 Y72.6524
G01 X23.3064 Y72.5762
G01 X23.2870 Y72.4977
G01 X23.2759 Y72.4224
G01 X23.2721 Y72.3465
G01 X23.2759 Y72.2656
G01 X23.2879 Y72.1855
G01 X23.3064 Y72.1118
G01 X23.3320 Y72.0401
G01 X23.3665 Y71.9669
G01 X23.4068 Y71.8995
G01 X23.4521 Y71.8384
G01 X23.5063 Y71.7783
G01 X23.5664 Y71.7241
G01 X23.6275 Y71.6788
G01 X23.6927 Y71.6397
G01 X23.7659 Y71.6049
G01 X23.8421 Y71.5778
G01 X23.9159 Y71.5594
G01 X23.9912 Y71.5482
G01 X24.0720 Y71.5440
G00 Z5.0000
G00 X24.0720 Y69.0040
G01 F60.00
G01 Z-0.0000
G01 F120.00
G01 X24.5745 Y69.0041
G01 X24.6504 Y69.0079
G01 X24.7257 Y69.0190
G01 X24.8042 Y69.0384
G01 X24.8781 Y69.0649
G01 X24.9491 Y69.0985
G01 X25.0165 Y69.1388
G01 X25.0776 Y69.1841
G01 X25.1394 Y69.2401
G01 X25.1904 Y69.2965
G01 X25.2378 Y69.3606
G01 X25.2775 Y69.4269
G01 X25.3111 Y69.4979
G01 X25.3376 Y69.5718
G01 X25.3566 Y69.6479
G01 X25.3681 Y69.7256
G01 X25.3720 Y69.8040
G01 X25.3681 Y69.8824
G01 X25.3566 Y69.9601
G01 X25.3376 Y70.0362
G01 X25.3111 Y70.1101
G01 X25.2775 Y70.1811
G01 X25.2372 Y70.2485
G01 X25.1904 Y70.3115
G01 X25.1377 Y70.3697
G01 X25.0795 Y70.4224
G01 X25.0154 Y70.4698
G01 X24.9491 Y70.5095
G01 X24.8759 Y70.5440
G01 X24.8042 Y70.5696
G01 X24.7305 Y70.5881
G01 X24.6516 Y70.6000
G01 X24.5720 Y70.6040
G01 X24.0720 Y70.6040
G01 X23.9912 Y70.5998
G01 X23.9159 Y70.5886
G01 X23.8374 Y70.5688
G01 X23.7659 Y70.5431
G01 X23.6971 Y70.5106
G01 X23.6296 Y70.4705
G01 X23.5645 Y70.4224
G01 X23.5063 Y70.3697
G01 X23.4536 Y70.3115
G01 X23.4062 Y70.2474
